(Test program)
N10G90	 (Absolute Coordinates)
N20G21	 (Metric Values)
N3017	 (Select XY Plane)
N40(Feeds and Speeds set for machining Please select a material to machine)
N50G54	 (Select Relative Coordinate System)
N60(tool change to 3.15 mm Carbide Slot Cutter)
N70T1M06
N80(Sketch)
N90G00Z5S7000M03
N100G00X8.575Y17.852
N110G00Z5
N120G01Z3F100
N130G01Z2.5
N140G01X8.575Y7.002Z2.5F840
N150G01X19.425Y7.002Z2.5
N160G01X19.425Y17.852Z2.5
N170G01X8.575Y17.852Z2.5
N180G01Z2F100
N190G01X8.575Y7.002Z2F840
N200G01X19.425Y7.002Z2
N210G01X19.425Y17.852Z2
N220G01X8.575Y17.852Z2
N230G00Z5
N240G00X8.575Y7.002
N250G00Z5
N260G01Z3F100
N270G01Z1.5
N280G01X19.425Y7.002Z1.5F840
N290G01X19.425Y17.852Z1.5
N300G01X8.575Y17.852Z1.5
N310G01X8.575Y7.002Z1.5
N320G00Z5
N330G00X8.575Y17.852
N340G00Z5
N350G01Z3F100
N360G01Z1
N370G01X8.575Y7.002Z1F840
N380G01X19.425Y7.002Z1
N390G01X19.425Y17.852Z1
N400G01X8.575Y17.852Z1
N410G00Z5
N420G00X8.575Y7.002
N430G00Z5
N440G01Z3F100
N450G01Z0.5
N460G01X19.425Y7.002Z0.5F840
N470G01X19.425Y17.852Z0.5
N480G01X8.575Y17.852Z0.5
N490G01X8.575Y7.002Z0.5
N500G01Z0F100
N510G01X19.425Y7.002Z0F840
N520G01X19.425Y17.852Z0
N530G01X8.575Y17.852Z0
N540G01X8.575Y7.002Z0
N550G00Z5
N560(Sketch)
N570G00Z5S7000M03
N580G00X27.575Y17.852
N590G00Z5
N600G01Z3F100
N610G01Z2.5
N620G01X27.575Y7.002Z2.5F840
N630G01X38.425Y7.002Z2.5
N640G01X38.425Y17.852Z2.5
N650G01X27.575Y17.852Z2.5
N660G01Z2F100
N670G01X27.575Y7.002Z2F840
N680G01X38.425Y7.002Z2
N690G01X38.425Y17.852Z2
N700G01X27.575Y17.852Z2
N710G01Z1.5F100
N720G01X27.575Y7.002Z1.5F840
N730G01X38.425Y7.002Z1.5
N740G01X38.425Y17.852Z1.5
N750G01X27.575Y17.852Z1.5
N760G01Z1F100
N770G01X27.575Y7.002Z1F840
N780G01X38.425Y7.002Z1
N790G01X38.425Y17.852Z1
N800G01X27.575Y17.852Z1
N810G01Z0.5F100
N820G01X27.575Y7.002Z0.5F840
N830G01X38.425Y7.002Z0.5
N840G01X38.425Y17.852Z0.5
N850G01X27.575Y17.852Z0.5
N860G01Z0F100
N870G01X27.575Y7.002Z0F840
N880G01X38.425Y7.002Z0
N890G01X38.425Y17.852Z0
N900G01X27.575Y17.852Z0
N910G00Z5
N920(Sketch)
N930G00Z5S7000M03
N940G00X46.575Y17.852
N950G00Z5
N960G01Z3F100
N970G01Z2.5
N980G01X46.575Y7.002Z2.5F840
N990G01X57.425Y7.002Z2.5
N1000G01X57.425Y17.852Z2.5
N1010G01X46.575Y17.852Z2.5
N1020G01Z2F100
N1030G01X46.575Y7.002Z2F840
N1040G01X57.425Y7.002Z2
N1050G01X57.425Y17.852Z2
N1060G01X46.575Y17.852Z2
N1070G01Z1.5F100
N1080G01X46.575Y7.002Z1.5F840
N1090G01X57.425Y7.002Z1.5
N1100G01X57.425Y17.852Z1.5
N1110G01X46.575Y17.852Z1.5
N1120G01Z1F100
N1130G01X46.575Y7.002Z1F840
N1140G01X57.425Y7.002Z1
N1150G01X57.425Y17.852Z1
N1160G01X46.575Y17.852Z1
N1170G01Z0.5F100
N1180G01X46.575Y7.002Z0.5F840
N1190G01X57.425Y7.002Z0.5
N1200G01X57.425Y17.852Z0.5
N1210G01X46.575Y17.852Z0.5
N1220G01Z0F100
N1230G01X46.575Y7.002Z0F840
N1240G01X57.425Y7.002Z0
N1250G01X57.425Y17.852Z0
N1260G01X46.575Y17.852Z0
N1270G00Z5
N1280M02
