(Test program)
N10G90	 (Absolute Coordinates)
N20G21	 (Metric Values)
N3017	 (Select XY Plane)
N40(Feeds and Speeds set for machining Please select a material to machine)
N50G54	 (Select Relative Coordinate System)
N60(tool change to 3 mm Carbide Slot Cutter)
N70T1M06
N80(Sketch)
N90G00Z5S7000M03
N100G00X8.203Y21.372
N110G00Z5
N120G01Z3F100
N130G01Z2.5
N140G01X8.203Y10.372Z2.5F840
N150G01X19.203Y10.372Z2.5
N160G01X19.203Y21.372Z2.5
N170G01X8.203Y21.372Z2.5
N180G01Z2F100
N190G01X8.203Y10.372Z2F840
N200G01X19.203Y10.372Z2
N210G01X19.203Y21.372Z2
N220G01X8.203Y21.372Z2
N230G01Z1.5F100
N240G01X8.203Y10.372Z1.5F840
N250G01X19.203Y10.372Z1.5
N260G01X19.203Y21.372Z1.5
N270G01X8.203Y21.372Z1.5
N280G01Z1F100
N290G01X8.203Y10.372Z1F840
N300G01X19.203Y10.372Z1
N310G01X19.203Y21.372Z1
N320G01X8.203Y21.372Z1
N330G01Z0.5F100
N340G01X8.203Y10.372Z0.5F840
N350G01X19.203Y10.372Z0.5
N360G01X19.203Y21.372Z0.5
N370G01X8.203Y21.372Z0.5
N380G01Z0F100
N390G01X8.203Y10.372Z0F840
N400G01X19.203Y10.372Z0
N410G01X19.203Y21.372Z0
N420G01X8.203Y21.372Z0
N430G01Z-0.499F100
N440G01X8.203Y10.372Z-0.499F840
N450G01X19.203Y10.372Z-0.499
N460G01X19.203Y21.372Z-0.499
N470G01X8.203Y21.372Z-0.499
N480G01Z-0.999F100
N490G01X8.203Y10.372Z-0.999F840
N500G01X19.203Y10.372Z-0.999
N510G01X19.203Y21.372Z-0.999
N520G01X8.203Y21.372Z-0.999
N530G00Z5
N540(Sketch)
N550G00Z5S7000M03
N560G00X8.203Y59.372
N570G00Z5
N580G01Z3F100
N590G01Z2.5
N600G01X8.203Y48.372Z2.5F840
N610G01X19.203Y48.372Z2.5
N620G01X19.203Y59.372Z2.5
N630G01X8.203Y59.372Z2.5
N640G01Z2F100
N650G01X8.203Y48.372Z2F840
N660G01X19.203Y48.372Z2
N670G01X19.203Y59.372Z2
N680G01X8.203Y59.372Z2
N690G01Z1.5F100
N700G01X8.203Y48.372Z1.5F840
N710G01X19.203Y48.372Z1.5
N720G01X19.203Y59.372Z1.5
N730G01X8.203Y59.372Z1.5
N740G01Z1F100
N750G01X8.203Y48.372Z1F840
N760G01X19.203Y48.372Z1
N770G01X19.203Y59.372Z1
N780G01X8.203Y59.372Z1
N790G01Z0.5F100
N800G01X8.203Y48.372Z0.5F840
N810G01X19.203Y48.372Z0.5
N820G01X19.203Y59.372Z0.5
N830G01X8.203Y59.372Z0.5
N840G01Z0F100
N850G01X8.203Y48.372Z0F840
N860G01X19.203Y48.372Z0
N870G01X19.203Y59.372Z0
N880G01X8.203Y59.372Z0
N890G01Z-0.499F100
N900G01X8.203Y48.372Z-0.499F840
N910G01X19.203Y48.372Z-0.499
N920G01X19.203Y59.372Z-0.499
N930G01X8.203Y59.372Z-0.499
N940G01Z-0.999F100
N950G01X8.203Y48.372Z-0.999F840
N960G01X19.203Y48.372Z-0.999
N970G01X19.203Y59.372Z-0.999
N980G01X8.203Y59.372Z-0.999
N990G00Z5
N1000(Sketch)
N1010G00Z5S7000M03
N1020G00X8.203Y78.372
N1030G00Z5
N1040G01Z3F100
N1050G01Z2.5
N1060G01X8.203Y67.372Z2.5F840
N1070G01X19.203Y67.372Z2.5
N1080G01X19.203Y78.372Z2.5
N1090G01X8.203Y78.372Z2.5
N1100G01Z2F100
N1110G01X8.203Y67.372Z2F840
N1120G01X19.203Y67.372Z2
N1130G01X19.203Y78.372Z2
N1140G01X8.203Y78.372Z2
N1150G01Z1.5F100
N1160G01X8.203Y67.372Z1.5F840
N1170G01X19.203Y67.372Z1.5
N1180G01X19.203Y78.372Z1.5
N1190G01X8.203Y78.372Z1.5
N1200G01Z1F100
N1210G01X8.203Y67.372Z1F840
N1220G01X19.203Y67.372Z1
N1230G01X19.203Y78.372Z1
N1240G01X8.203Y78.372Z1
N1250G01Z0.5F100
N1260G01X8.203Y67.372Z0.5F840
N1270G01X19.203Y67.372Z0.5
N1280G01X19.203Y78.372Z0.5
N1290G01X8.203Y78.372Z0.5
N1300G01Z0F100
N1310G01X8.203Y67.372Z0F840
N1320G01X19.203Y67.372Z0
N1330G01X19.203Y78.372Z0
N1340G01X8.203Y78.372Z0
N1350G01Z-0.499F100
N1360G01X8.203Y67.372Z-0.499F840
N1370G01X19.203Y67.372Z-0.499
N1380G01X19.203Y78.372Z-0.499
N1390G01X8.203Y78.372Z-0.499
N1400G01Z-0.999F100
N1410G01X8.203Y67.372Z-0.999F840
N1420G01X19.203Y67.372Z-0.999
N1430G01X19.203Y78.372Z-0.999
N1440G01X8.203Y78.372Z-0.999
N1450G00Z5
N1460(Sketch)
N1470G00Z5S7000M03
N1480G00X8.203Y97.372
N1490G00Z5
N1500G01Z3F100
N1510G01Z2.5
N1520G01X8.203Y86.372Z2.5F840
N1530G01X19.203Y86.372Z2.5
N1540G01X19.203Y97.372Z2.5
N1550G01X8.203Y97.372Z2.5
N1560G01Z2F100
N1570G01X8.203Y86.372Z2F840
N1580G01X19.203Y86.372Z2
N1590G01X19.203Y97.372Z2
N1600G01X8.203Y97.372Z2
N1610G01Z1.5F100
N1620G01X8.203Y86.372Z1.5F840
N1630G01X19.203Y86.372Z1.5
N1640G01X19.203Y97.372Z1.5
N1650G01X8.203Y97.372Z1.5
N1660G01Z1F100
N1670G01X8.203Y86.372Z1F840
N1680G01X19.203Y86.372Z1
N1690G01X19.203Y97.372Z1
N1700G01X8.203Y97.372Z1
N1710G01Z0.5F100
N1720G01X8.203Y86.372Z0.5F840
N1730G01X19.203Y86.372Z0.5
N1740G01X19.203Y97.372Z0.5
N1750G01X8.203Y97.372Z0.5
N1760G01Z0F100
N1770G01X8.203Y86.372Z0F840
N1780G01X19.203Y86.372Z0
N1790G01X19.203Y97.372Z0
N1800G01X8.203Y97.372Z0
N1810G01Z-0.499F100
N1820G01X8.203Y86.372Z-0.499F840
N1830G01X19.203Y86.372Z-0.499
N1840G01X19.203Y97.372Z-0.499
N1850G01X8.203Y97.372Z-0.499
N1860G01Z-0.999F100
N1870G01X8.203Y86.372Z-0.999F840
N1880G01X19.203Y86.372Z-0.999
N1890G01X19.203Y97.372Z-0.999
N1900G01X8.203Y97.372Z-0.999
N1910G00Z5
N1920(Sketch)
N1930G00Z5S7000M03
N1940G00X8.203Y116.372
N1950G00Z5
N1960G01Z3F100
N1970G01Z2.5
N1980G01X8.203Y105.372Z2.5F840
N1990G01X19.203Y105.372Z2.5
N2000G01X19.203Y116.372Z2.5
N2010G01X8.203Y116.372Z2.5
N2020G01Z2F100
N2030G01X8.203Y105.372Z2F840
N2040G01X19.203Y105.372Z2
N2050G01X19.203Y116.372Z2
N2060G01X8.203Y116.372Z2
N2070G01Z1.5F100
N2080G01X8.203Y105.372Z1.5F840
N2090G01X19.203Y105.372Z1.5
N2100G01X19.203Y116.372Z1.5
N2110G01X8.203Y116.372Z1.5
N2120G01Z1F100
N2130G01X8.203Y105.372Z1F840
N2140G01X19.203Y105.372Z1
N2150G01X19.203Y116.372Z1
N2160G01X8.203Y116.372Z1
N2170G01Z0.5F100
N2180G01X8.203Y105.372Z0.5F840
N2190G01X19.203Y105.372Z0.5
N2200G01X19.203Y116.372Z0.5
N2210G01X8.203Y116.372Z0.5
N2220G01Z0F100
N2230G01X8.203Y105.372Z0F840
N2240G01X19.203Y105.372Z0
N2250G01X19.203Y116.372Z0
N2260G01X8.203Y116.372Z0
N2270G01Z-0.499F100
N2280G01X8.203Y105.372Z-0.499F840
N2290G01X19.203Y105.372Z-0.499
N2300G01X19.203Y116.372Z-0.499
N2310G01X8.203Y116.372Z-0.499
N2320G01Z-0.999F100
N2330G01X8.203Y105.372Z-0.999F840
N2340G01X19.203Y105.372Z-0.999
N2350G01X19.203Y116.372Z-0.999
N2360G01X8.203Y116.372Z-0.999
N2370G00Z5
N2380(Sketch)
N2390G00Z5S7000M03
N2400G00X8.203Y144.872
N2410G00Z5
N2420G01Z3F100
N2430G01Z2.5
N2440G01X8.203Y133.872Z2.5F840
N2450G01X19.203Y133.872Z2.5
N2460G01X19.203Y144.872Z2.5
N2470G01X8.203Y144.872Z2.5
N2480G01Z2F100
N2490G01X8.203Y133.872Z2F840
N2500G01X19.203Y133.872Z2
N2510G01X19.203Y144.872Z2
N2520G01X8.203Y144.872Z2
N2530G01Z1.5F100
N2540G01X8.203Y133.872Z1.5F840
N2550G01X19.203Y133.872Z1.5
N2560G01X19.203Y144.872Z1.5
N2570G01X8.203Y144.872Z1.5
N2580G01Z1F100
N2590G01X8.203Y133.872Z1F840
N2600G01X19.203Y133.872Z1
N2610G01X19.203Y144.872Z1
N2620G01X8.203Y144.872Z1
N2630G01Z0.5F100
N2640G01X8.203Y133.872Z0.5F840
N2650G01X19.203Y133.872Z0.5
N2660G01X19.203Y144.872Z0.5
N2670G01X8.203Y144.872Z0.5
N2680G01Z0F100
N2690G01X8.203Y133.872Z0F840
N2700G01X19.203Y133.872Z0
N2710G01X19.203Y144.872Z0
N2720G01X8.203Y144.872Z0
N2730G01Z-0.499F100
N2740G01X8.203Y133.872Z-0.499F840
N2750G01X19.203Y133.872Z-0.499
N2760G01X19.203Y144.872Z-0.499
N2770G01X8.203Y144.872Z-0.499
N2780G01Z-0.999F100
N2790G01X8.203Y133.872Z-0.999F840
N2800G01X19.203Y133.872Z-0.999
N2810G01X19.203Y144.872Z-0.999
N2820G01X8.203Y144.872Z-0.999
N2830G00Z5
N2840(Sketch)
N2850G00Z5S7000M03
N2860G00X8.203Y163.872
N2870G00Z5
N2880G01Z3F100
N2890G01Z2.5
N2900G01X8.203Y152.872Z2.5F840
N2910G01X19.203Y152.872Z2.5
N2920G01X19.203Y163.872Z2.5
N2930G01X8.203Y163.872Z2.5
N2940G01Z2F100
N2950G01X8.203Y152.872Z2F840
N2960G01X19.203Y152.872Z2
N2970G01X19.203Y163.872Z2
N2980G01X8.203Y163.872Z2
N2990G01Z1.5F100
N3000G01X8.203Y152.872Z1.5F840
N3010G01X19.203Y152.872Z1.5
N3020G01X19.203Y163.872Z1.5
N3030G01X8.203Y163.872Z1.5
N3040G01Z1F100
N3050G01X8.203Y152.872Z1F840
N3060G01X19.203Y152.872Z1
N3070G01X19.203Y163.872Z1
N3080G01X8.203Y163.872Z1
N3090G01Z0.5F100
N3100G01X8.203Y152.872Z0.5F840
N3110G01X19.203Y152.872Z0.5
N3120G01X19.203Y163.872Z0.5
N3130G01X8.203Y163.872Z0.5
N3140G01Z0F100
N3150G01X8.203Y152.872Z0F840
N3160G01X19.203Y152.872Z0
N3170G01X19.203Y163.872Z0
N3180G01X8.203Y163.872Z0
N3190G01Z-0.499F100
N3200G01X8.203Y152.872Z-0.499F840
N3210G01X19.203Y152.872Z-0.499
N3220G01X19.203Y163.872Z-0.499
N3230G01X8.203Y163.872Z-0.499
N3240G01Z-0.999F100
N3250G01X8.203Y152.872Z-0.999F840
N3260G01X19.203Y152.872Z-0.999
N3270G01X19.203Y163.872Z-0.999
N3280G01X8.203Y163.872Z-0.999
N3290G00Z5
N3300(Sketch)
N3310G00Z5S7000M03
N3320G00X8.203Y182.872
N3330G00Z5
N3340G01Z3F100
N3350G01Z2.5
N3360G01X8.203Y171.872Z2.5F840
N3370G01X19.203Y171.872Z2.5
N3380G01X19.203Y182.872Z2.5
N3390G01X8.203Y182.872Z2.5
N3400G01Z2F100
N3410G01X8.203Y171.872Z2F840
N3420G01X19.203Y171.872Z2
N3430G01X19.203Y182.872Z2
N3440G01X8.203Y182.872Z2
N3450G01Z1.5F100
N3460G01X8.203Y171.872Z1.5F840
N3470G01X19.203Y171.872Z1.5
N3480G01X19.203Y182.872Z1.5
N3490G01X8.203Y182.872Z1.5
N3500G01Z1F100
N3510G01X8.203Y171.872Z1F840
N3520G01X19.203Y171.872Z1
N3530G01X19.203Y182.872Z1
N3540G01X8.203Y182.872Z1
N3550G01Z0.5F100
N3560G01X8.203Y171.872Z0.5F840
N3570G01X19.203Y171.872Z0.5
N3580G01X19.203Y182.872Z0.5
N3590G01X8.203Y182.872Z0.5
N3600G01Z0F100
N3610G01X8.203Y171.872Z0F840
N3620G01X19.203Y171.872Z0
N3630G01X19.203Y182.872Z0
N3640G01X8.203Y182.872Z0
N3650G01Z-0.499F100
N3660G01X8.203Y171.872Z-0.499F840
N3670G01X19.203Y171.872Z-0.499
N3680G01X19.203Y182.872Z-0.499
N3690G01X8.203Y182.872Z-0.499
N3700G01Z-0.999F100
N3710G01X8.203Y171.872Z-0.999F840
N3720G01X19.203Y171.872Z-0.999
N3730G01X19.203Y182.872Z-0.999
N3740G01X8.203Y182.872Z-0.999
N3750G00Z5
N3760(Sketch)
N3770G00Z5S7000M03
N3780G00X8.203Y201.872
N3790G00Z5
N3800G01Z3F100
N3810G01Z2.5
N3820G01X8.203Y190.872Z2.5F840
N3830G01X19.203Y190.872Z2.5
N3840G01X19.203Y201.872Z2.5
N3850G01X8.203Y201.872Z2.5
N3860G01Z2F100
N3870G01X8.203Y190.872Z2F840
N3880G01X19.203Y190.872Z2
N3890G01X19.203Y201.872Z2
N3900G01X8.203Y201.872Z2
N3910G01Z1.5F100
N3920G01X8.203Y190.872Z1.5F840
N3930G01X19.203Y190.872Z1.5
N3940G01X19.203Y201.872Z1.5
N3950G01X8.203Y201.872Z1.5
N3960G01Z1F100
N3970G01X8.203Y190.872Z1F840
N3980G01X19.203Y190.872Z1
N3990G01X19.203Y201.872Z1
N4000G01X8.203Y201.872Z1
N4010G01Z0.5F100
N4020G01X8.203Y190.872Z0.5F840
N4030G01X19.203Y190.872Z0.5
N4040G01X19.203Y201.872Z0.5
N4050G01X8.203Y201.872Z0.5
N4060G01Z0F100
N4070G01X8.203Y190.872Z0F840
N4080G01X19.203Y190.872Z0
N4090G01X19.203Y201.872Z0
N4100G01X8.203Y201.872Z0
N4110G01Z-0.499F100
N4120G01X8.203Y190.872Z-0.499F840
N4130G01X19.203Y190.872Z-0.499
N4140G01X19.203Y201.872Z-0.499
N4150G01X8.203Y201.872Z-0.499
N4160G01Z-0.999F100
N4170G01X8.203Y190.872Z-0.999F840
N4180G01X19.203Y190.872Z-0.999
N4190G01X19.203Y201.872Z-0.999
N4200G01X8.203Y201.872Z-0.999
N4210G00Z5
N4220(Sketch)
N4230G00Z5S7000M03
N4240G00X8.203Y230.372
N4250G00Z5
N4260G01Z3F100
N4270G01Z2.5
N4280G01X8.203Y219.372Z2.5F840
N4290G01X19.203Y219.372Z2.5
N4300G01X19.203Y230.372Z2.5
N4310G01X8.203Y230.372Z2.5
N4320G01Z2F100
N4330G01X8.203Y219.372Z2F840
N4340G01X19.203Y219.372Z2
N4350G01X19.203Y230.372Z2
N4360G01X8.203Y230.372Z2
N4370G01Z1.5F100
N4380G01X8.203Y219.372Z1.5F840
N4390G01X19.203Y219.372Z1.5
N4400G01X19.203Y230.372Z1.5
N4410G01X8.203Y230.372Z1.5
N4420G01Z1F100
N4430G01X8.203Y219.372Z1F840
N4440G01X19.203Y219.372Z1
N4450G01X19.203Y230.372Z1
N4460G01X8.203Y230.372Z1
N4470G01Z0.5F100
N4480G01X8.203Y219.372Z0.5F840
N4490G01X19.203Y219.372Z0.5
N4500G01X19.203Y230.372Z0.5
N4510G01X8.203Y230.372Z0.5
N4520G01Z0F100
N4530G01X8.203Y219.372Z0F840
N4540G01X19.203Y219.372Z0
N4550G01X19.203Y230.372Z0
N4560G01X8.203Y230.372Z0
N4570G01Z-0.499F100
N4580G01X8.203Y219.372Z-0.499F840
N4590G01X19.203Y219.372Z-0.499
N4600G01X19.203Y230.372Z-0.499
N4610G01X8.203Y230.372Z-0.499
N4620G01Z-0.999F100
N4630G01X8.203Y219.372Z-0.999F840
N4640G01X19.203Y219.372Z-0.999
N4650G01X19.203Y230.372Z-0.999
N4660G01X8.203Y230.372Z-0.999
N4670G00Z5
N4680(Sketch)
N4690G00Z5S7000M03
N4700G00X8.203Y249.372
N4710G00Z5
N4720G01Z3F100
N4730G01Z2.5
N4740G01X8.203Y238.372Z2.5F840
N4750G01X19.203Y238.372Z2.5
N4760G01X19.203Y249.372Z2.5
N4770G01X8.203Y249.372Z2.5
N4780G01Z2F100
N4790G01X8.203Y238.372Z2F840
N4800G01X19.203Y238.372Z2
N4810G01X19.203Y249.372Z2
N4820G01X8.203Y249.372Z2
N4830G01Z1.5F100
N4840G01X8.203Y238.372Z1.5F840
N4850G01X19.203Y238.372Z1.5
N4860G01X19.203Y249.372Z1.5
N4870G01X8.203Y249.372Z1.5
N4880G01Z1F100
N4890G01X8.203Y238.372Z1F840
N4900G01X19.203Y238.372Z1
N4910G01X19.203Y249.372Z1
N4920G01X8.203Y249.372Z1
N4930G01Z0.5F100
N4940G01X8.203Y238.372Z0.5F840
N4950G01X19.203Y238.372Z0.5
N4960G01X19.203Y249.372Z0.5
N4970G01X8.203Y249.372Z0.5
N4980G01Z0F100
N4990G01X8.203Y238.372Z0F840
N5000G01X19.203Y238.372Z0
N5010G01X19.203Y249.372Z0
N5020G01X8.203Y249.372Z0
N5030G01Z-0.499F100
N5040G01X8.203Y238.372Z-0.499F840
N5050G01X19.203Y238.372Z-0.499
N5060G01X19.203Y249.372Z-0.499
N5070G01X8.203Y249.372Z-0.499
N5080G01Z-0.999F100
N5090G01X8.203Y238.372Z-0.999F840
N5100G01X19.203Y238.372Z-0.999
N5110G01X19.203Y249.372Z-0.999
N5120G01X8.203Y249.372Z-0.999
N5130G00Z5
N5140(Sketch)
N5150G00Z5S7000M03
N5160G00X8.203Y268.372
N5170G00Z5
N5180G01Z3F100
N5190G01Z2.5
N5200G01X8.203Y257.372Z2.5F840
N5210G01X19.203Y257.372Z2.5
N5220G01X19.203Y268.372Z2.5
N5230G01X8.203Y268.372Z2.5
N5240G01Z2F100
N5250G01X8.203Y257.372Z2F840
N5260G01X19.203Y257.372Z2
N5270G01X19.203Y268.372Z2
N5280G01X8.203Y268.372Z2
N5290G01Z1.5F100
N5300G01X8.203Y257.372Z1.5F840
N5310G01X19.203Y257.372Z1.5
N5320G01X19.203Y268.372Z1.5
N5330G01X8.203Y268.372Z1.5
N5340G01Z1F100
N5350G01X8.203Y257.372Z1F840
N5360G01X19.203Y257.372Z1
N5370G01X19.203Y268.372Z1
N5380G01X8.203Y268.372Z1
N5390G01Z0.5F100
N5400G01X8.203Y257.372Z0.5F840
N5410G01X19.203Y257.372Z0.5
N5420G01X19.203Y268.372Z0.5
N5430G01X8.203Y268.372Z0.5
N5440G01Z0F100
N5450G01X8.203Y257.372Z0F840
N5460G01X19.203Y257.372Z0
N5470G01X19.203Y268.372Z0
N5480G01X8.203Y268.372Z0
N5490G01Z-0.499F100
N5500G01X8.203Y257.372Z-0.499F840
N5510G01X19.203Y257.372Z-0.499
N5520G01X19.203Y268.372Z-0.499
N5530G01X8.203Y268.372Z-0.499
N5540G01Z-0.999F100
N5550G01X8.203Y257.372Z-0.999F840
N5560G01X19.203Y257.372Z-0.999
N5570G01X19.203Y268.372Z-0.999
N5580G01X8.203Y268.372Z-0.999
N5590G00Z5
N5600(Sketch)
N5610G00Z5S7000M03
N5620G00X8.203Y287.372
N5630G00Z5
N5640G01Z3F100
N5650G01Z2.5
N5660G01X8.203Y276.372Z2.5F840
N5670G01X19.203Y276.372Z2.5
N5680G01X19.203Y287.372Z2.5
N5690G01X8.203Y287.372Z2.5
N5700G01Z2F100
N5710G01X8.203Y276.372Z2F840
N5720G01X19.203Y276.372Z2
N5730G01X19.203Y287.372Z2
N5740G01X8.203Y287.372Z2
N5750G01Z1.5F100
N5760G01X8.203Y276.372Z1.5F840
N5770G01X19.203Y276.372Z1.5
N5780G01X19.203Y287.372Z1.5
N5790G01X8.203Y287.372Z1.5
N5800G01Z1F100
N5810G01X8.203Y276.372Z1F840
N5820G01X19.203Y276.372Z1
N5830G01X19.203Y287.372Z1
N5840G01X8.203Y287.372Z1
N5850G01Z0.5F100
N5860G01X8.203Y276.372Z0.5F840
N5870G01X19.203Y276.372Z0.5
N5880G01X19.203Y287.372Z0.5
N5890G01X8.203Y287.372Z0.5
N5900G01Z0F100
N5910G01X8.203Y276.372Z0F840
N5920G01X19.203Y276.372Z0
N5930G01X19.203Y287.372Z0
N5940G01X8.203Y287.372Z0
N5950G01Z-0.499F100
N5960G01X8.203Y276.372Z-0.499F840
N5970G01X19.203Y276.372Z-0.499
N5980G01X19.203Y287.372Z-0.499
N5990G01X8.203Y287.372Z-0.499
N6000G01Z-0.999F100
N6010G01X8.203Y276.372Z-0.999F840
N6020G01X19.203Y276.372Z-0.999
N6030G01X19.203Y287.372Z-0.999
N6040G01X8.203Y287.372Z-0.999
N6050G00Z5
N6060(Sketch)
N6070G00Z5S7000M03
N6080G00X8.203Y315.872
N6090G00Z5
N6100G01Z3F100
N6110G01Z2.5
N6120G01X8.203Y304.872Z2.5F840
N6130G01X19.203Y304.872Z2.5
N6140G01X19.203Y315.872Z2.5
N6150G01X8.203Y315.872Z2.5
N6160G01Z2F100
N6170G01X8.203Y304.872Z2F840
N6180G01X19.203Y304.872Z2
N6190G01X19.203Y315.872Z2
N6200G01X8.203Y315.872Z2
N6210G01Z1.5F100
N6220G01X8.203Y304.872Z1.5F840
N6230G01X19.203Y304.872Z1.5
N6240G01X19.203Y315.872Z1.5
N6250G01X8.203Y315.872Z1.5
N6260G01Z1F100
N6270G01X8.203Y304.872Z1F840
N6280G01X19.203Y304.872Z1
N6290G01X19.203Y315.872Z1
N6300G01X8.203Y315.872Z1
N6310G01Z0.5F100
N6320G01X8.203Y304.872Z0.5F840
N6330G01X19.203Y304.872Z0.5
N6340G01X19.203Y315.872Z0.5
N6350G01X8.203Y315.872Z0.5
N6360G01Z0F100
N6370G01X8.203Y304.872Z0F840
N6380G01X19.203Y304.872Z0
N6390G01X19.203Y315.872Z0
N6400G01X8.203Y315.872Z0
N6410G01Z-0.499F100
N6420G01X8.203Y304.872Z-0.499F840
N6430G01X19.203Y304.872Z-0.499
N6440G01X19.203Y315.872Z-0.499
N6450G01X8.203Y315.872Z-0.499
N6460G01Z-0.999F100
N6470G01X8.203Y304.872Z-0.999F840
N6480G01X19.203Y304.872Z-0.999
N6490G01X19.203Y315.872Z-0.999
N6500G01X8.203Y315.872Z-0.999
N6510G00Z5
N6520(Sketch)
N6530G00Z5S7000M03
N6540G00X8.203Y334.872
N6550G00Z5
N6560G01Z3F100
N6570G01Z2.5
N6580G01X8.203Y323.872Z2.5F840
N6590G01X19.203Y323.872Z2.5
N6600G01X19.203Y334.872Z2.5
N6610G01X8.203Y334.872Z2.5
N6620G01Z2F100
N6630G01X8.203Y323.872Z2F840
N6640G01X19.203Y323.872Z2
N6650G01X19.203Y334.872Z2
N6660G01X8.203Y334.872Z2
N6670G01Z1.5F100
N6680G01X8.203Y323.872Z1.5F840
N6690G01X19.203Y323.872Z1.5
N6700G01X19.203Y334.872Z1.5
N6710G01X8.203Y334.872Z1.5
N6720G01Z1F100
N6730G01X8.203Y323.872Z1F840
N6740G01X19.203Y323.872Z1
N6750G01X19.203Y334.872Z1
N6760G01X8.203Y334.872Z1
N6770G01Z0.5F100
N6780G01X8.203Y323.872Z0.5F840
N6790G01X19.203Y323.872Z0.5
N6800G01X19.203Y334.872Z0.5
N6810G01X8.203Y334.872Z0.5
N6820G01Z0F100
N6830G01X8.203Y323.872Z0F840
N6840G01X19.203Y323.872Z0
N6850G01X19.203Y334.872Z0
N6860G01X8.203Y334.872Z0
N6870G01Z-0.499F100
N6880G01X8.203Y323.872Z-0.499F840
N6890G01X19.203Y323.872Z-0.499
N6900G01X19.203Y334.872Z-0.499
N6910G01X8.203Y334.872Z-0.499
N6920G01Z-0.999F100
N6930G01X8.203Y323.872Z-0.999F840
N6940G01X19.203Y323.872Z-0.999
N6950G01X19.203Y334.872Z-0.999
N6960G01X8.203Y334.872Z-0.999
N6970G00Z5
N6980(Sketch)
N6990G00Z5S7000M03
N7000G00X8.203Y353.872
N7010G00Z5
N7020G01Z3F100
N7030G01Z2.5
N7040G01X8.203Y342.872Z2.5F840
N7050G01X19.203Y342.872Z2.5
N7060G01X19.203Y353.872Z2.5
N7070G01X8.203Y353.872Z2.5
N7080G01Z2F100
N7090G01X8.203Y342.872Z2F840
N7100G01X19.203Y342.872Z2
N7110G01X19.203Y353.872Z2
N7120G01X8.203Y353.872Z2
N7130G01Z1.5F100
N7140G01X8.203Y342.872Z1.5F840
N7150G01X19.203Y342.872Z1.5
N7160G01X19.203Y353.872Z1.5
N7170G01X8.203Y353.872Z1.5
N7180G01Z1F100
N7190G01X8.203Y342.872Z1F840
N7200G01X19.203Y342.872Z1
N7210G01X19.203Y353.872Z1
N7220G01X8.203Y353.872Z1
N7230G01Z0.5F100
N7240G01X8.203Y342.872Z0.5F840
N7250G01X19.203Y342.872Z0.5
N7260G01X19.203Y353.872Z0.5
N7270G01X8.203Y353.872Z0.5
N7280G01Z0F100
N7290G01X8.203Y342.872Z0F840
N7300G01X19.203Y342.872Z0
N7310G01X19.203Y353.872Z0
N7320G01X8.203Y353.872Z0
N7330G01Z-0.499F100
N7340G01X8.203Y342.872Z-0.499F840
N7350G01X19.203Y342.872Z-0.499
N7360G01X19.203Y353.872Z-0.499
N7370G01X8.203Y353.872Z-0.499
N7380G01Z-0.999F100
N7390G01X8.203Y342.872Z-0.999F840
N7400G01X19.203Y342.872Z-0.999
N7410G01X19.203Y353.872Z-0.999
N7420G01X8.203Y353.872Z-0.999
N7430G00Z5
N7440(Sketch)
N7450G00Z5S7000M03
N7460G00X36.703Y353.872
N7470G00Z5
N7480G01Z3F100
N7490G01Z2.5
N7500G01X36.703Y342.872Z2.5F840
N7510G01X47.703Y342.872Z2.5
N7520G01X47.703Y353.872Z2.5
N7530G01X36.703Y353.872Z2.5
N7540G01Z2F100
N7550G01X36.703Y342.872Z2F840
N7560G01X47.703Y342.872Z2
N7570G01X47.703Y353.872Z2
N7580G01X36.703Y353.872Z2
N7590G01Z1.5F100
N7600G01X36.703Y342.872Z1.5F840
N7610G01X47.703Y342.872Z1.5
N7620G01X47.703Y353.872Z1.5
N7630G01X36.703Y353.872Z1.5
N7640G01Z1F100
N7650G01X36.703Y342.872Z1F840
N7660G01X47.703Y342.872Z1
N7670G01X47.703Y353.872Z1
N7680G01X36.703Y353.872Z1
N7690G01Z0.5F100
N7700G01X36.703Y342.872Z0.5F840
N7710G01X47.703Y342.872Z0.5
N7720G01X47.703Y353.872Z0.5
N7730G01X36.703Y353.872Z0.5
N7740G01Z0F100
N7750G01X36.703Y342.872Z0F840
N7760G01X47.703Y342.872Z0
N7770G01X47.703Y353.872Z0
N7780G01X36.703Y353.872Z0
N7790G01Z-0.499F100
N7800G01X36.703Y342.872Z-0.499F840
N7810G01X47.703Y342.872Z-0.499
N7820G01X47.703Y353.872Z-0.499
N7830G01X36.703Y353.872Z-0.499
N7840G01Z-0.999F100
N7850G01X36.703Y342.872Z-0.999F840
N7860G01X47.703Y342.872Z-0.999
N7870G01X47.703Y353.872Z-0.999
N7880G01X36.703Y353.872Z-0.999
N7890G00Z5
N7900(Sketch)
N7910G00Z5S7000M03
N7920G00X36.703Y334.872
N7930G00Z5
N7940G01Z3F100
N7950G01Z2.5
N7960G01X36.703Y323.872Z2.5F840
N7970G01X47.703Y323.872Z2.5
N7980G01X47.703Y334.872Z2.5
N7990G01X36.703Y334.872Z2.5
N8000G01Z2F100
N8010G01X36.703Y323.872Z2F840
N8020G01X47.703Y323.872Z2
N8030G01X47.703Y334.872Z2
N8040G01X36.703Y334.872Z2
N8050G01Z1.5F100
N8060G01X36.703Y323.872Z1.5F840
N8070G01X47.703Y323.872Z1.5
N8080G01X47.703Y334.872Z1.5
N8090G01X36.703Y334.872Z1.5
N8100G01Z1F100
N8110G01X36.703Y323.872Z1F840
N8120G01X47.703Y323.872Z1
N8130G01X47.703Y334.872Z1
N8140G01X36.703Y334.872Z1
N8150G01Z0.5F100
N8160G01X36.703Y323.872Z0.5F840
N8170G01X47.703Y323.872Z0.5
N8180G01X47.703Y334.872Z0.5
N8190G01X36.703Y334.872Z0.5
N8200G01Z0F100
N8210G01X36.703Y323.872Z0F840
N8220G01X47.703Y323.872Z0
N8230G01X47.703Y334.872Z0
N8240G01X36.703Y334.872Z0
N8250G01Z-0.499F100
N8260G01X36.703Y323.872Z-0.499F840
N8270G01X47.703Y323.872Z-0.499
N8280G01X47.703Y334.872Z-0.499
N8290G01X36.703Y334.872Z-0.499
N8300G01Z-0.999F100
N8310G01X36.703Y323.872Z-0.999F840
N8320G01X47.703Y323.872Z-0.999
N8330G01X47.703Y334.872Z-0.999
N8340G01X36.703Y334.872Z-0.999
N8350G00Z5
N8360(Sketch)
N8370G00Z5S7000M03
N8380G00X36.703Y315.872
N8390G00Z5
N8400G01Z3F100
N8410G01Z2.5
N8420G01X36.703Y304.872Z2.5F840
N8430G01X47.703Y304.872Z2.5
N8440G01X47.703Y315.872Z2.5
N8450G01X36.703Y315.872Z2.5
N8460G01Z2F100
N8470G01X36.703Y304.872Z2F840
N8480G01X47.703Y304.872Z2
N8490G01X47.703Y315.872Z2
N8500G01X36.703Y315.872Z2
N8510G01Z1.5F100
N8520G01X36.703Y304.872Z1.5F840
N8530G01X47.703Y304.872Z1.5
N8540G01X47.703Y315.872Z1.5
N8550G01X36.703Y315.872Z1.5
N8560G01Z1F100
N8570G01X36.703Y304.872Z1F840
N8580G01X47.703Y304.872Z1
N8590G01X47.703Y315.872Z1
N8600G01X36.703Y315.872Z1
N8610G01Z0.5F100
N8620G01X36.703Y304.872Z0.5F840
N8630G01X47.703Y304.872Z0.5
N8640G01X47.703Y315.872Z0.5
N8650G01X36.703Y315.872Z0.5
N8660G01Z0F100
N8670G01X36.703Y304.872Z0F840
N8680G01X47.703Y304.872Z0
N8690G01X47.703Y315.872Z0
N8700G01X36.703Y315.872Z0
N8710G01Z-0.499F100
N8720G01X36.703Y304.872Z-0.499F840
N8730G01X47.703Y304.872Z-0.499
N8740G01X47.703Y315.872Z-0.499
N8750G01X36.703Y315.872Z-0.499
N8760G01Z-0.999F100
N8770G01X36.703Y304.872Z-0.999F840
N8780G01X47.703Y304.872Z-0.999
N8790G01X47.703Y315.872Z-0.999
N8800G01X36.703Y315.872Z-0.999
N8810G00Z5
N8820(Sketch)
N8830G00Z5S7000M03
N8840G00X36.703Y277.747
N8850G00Z5
N8860G01Z3F100
N8870G01Z2.5
N8880G01X36.703Y266.747Z2.5F840
N8890G01X47.703Y266.747Z2.5
N8900G01X47.703Y277.747Z2.5
N8910G01X36.703Y277.747Z2.5
N8920G01Z2F100
N8930G01X36.703Y266.747Z2F840
N8940G01X47.703Y266.747Z2
N8950G01X47.703Y277.747Z2
N8960G01X36.703Y277.747Z2
N8970G01Z1.5F100
N8980G01X36.703Y266.747Z1.5F840
N8990G01X47.703Y266.747Z1.5
N9000G01X47.703Y277.747Z1.5
N9010G01X36.703Y277.747Z1.5
N9020G01Z1F100
N9030G01X36.703Y266.747Z1F840
N9040G01X47.703Y266.747Z1
N9050G01X47.703Y277.747Z1
N9060G01X36.703Y277.747Z1
N9070G01Z0.5F100
N9080G01X36.703Y266.747Z0.5F840
N9090G01X47.703Y266.747Z0.5
N9100G01X47.703Y277.747Z0.5
N9110G01X36.703Y277.747Z0.5
N9120G01Z0F100
N9130G01X36.703Y266.747Z0F840
N9140G01X47.703Y266.747Z0
N9150G01X47.703Y277.747Z0
N9160G01X36.703Y277.747Z0
N9170G01Z-0.499F100
N9180G01X36.703Y266.747Z-0.499F840
N9190G01X47.703Y266.747Z-0.499
N9200G01X47.703Y277.747Z-0.499
N9210G01X36.703Y277.747Z-0.499
N9220G01Z-0.999F100
N9230G01X36.703Y266.747Z-0.999F840
N9240G01X47.703Y266.747Z-0.999
N9250G01X47.703Y277.747Z-0.999
N9260G01X36.703Y277.747Z-0.999
N9270G00Z5
N9280(Sketch)
N9290G00Z5S7000M03
N9300G00X36.703Y249.372
N9310G00Z5
N9320G01Z3F100
N9330G01Z2.5
N9340G01X36.703Y238.372Z2.5F840
N9350G01X47.703Y238.372Z2.5
N9360G01X47.703Y249.372Z2.5
N9370G01X36.703Y249.372Z2.5
N9380G01Z2F100
N9390G01X36.703Y238.372Z2F840
N9400G01X47.703Y238.372Z2
N9410G01X47.703Y249.372Z2
N9420G01X36.703Y249.372Z2
N9430G01Z1.5F100
N9440G01X36.703Y238.372Z1.5F840
N9450G01X47.703Y238.372Z1.5
N9460G01X47.703Y249.372Z1.5
N9470G01X36.703Y249.372Z1.5
N9480G01Z1F100
N9490G01X36.703Y238.372Z1F840
N9500G01X47.703Y238.372Z1
N9510G01X47.703Y249.372Z1
N9520G01X36.703Y249.372Z1
N9530G01Z0.5F100
N9540G01X36.703Y238.372Z0.5F840
N9550G01X47.703Y238.372Z0.5
N9560G01X47.703Y249.372Z0.5
N9570G01X36.703Y249.372Z0.5
N9580G01Z0F100
N9590G01X36.703Y238.372Z0F840
N9600G01X47.703Y238.372Z0
N9610G01X47.703Y249.372Z0
N9620G01X36.703Y249.372Z0
N9630G01Z-0.499F100
N9640G01X36.703Y238.372Z-0.499F840
N9650G01X47.703Y238.372Z-0.499
N9660G01X47.703Y249.372Z-0.499
N9670G01X36.703Y249.372Z-0.499
N9680G01Z-0.999F100
N9690G01X36.703Y238.372Z-0.999F840
N9700G01X47.703Y238.372Z-0.999
N9710G01X47.703Y249.372Z-0.999
N9720G01X36.703Y249.372Z-0.999
N9730G00Z5
N9740(Sketch)
N9750G00Z5S7000M03
N9760G00X36.703Y230.372
N9770G00Z5
N9780G01Z3F100
N9790G01Z2.5
N9800G01X36.703Y219.372Z2.5F840
N9810G01X47.703Y219.372Z2.5
N9820G01X47.703Y230.372Z2.5
N9830G01X36.703Y230.372Z2.5
N9840G01Z2F100
N9850G01X36.703Y219.372Z2F840
N9860G01X47.703Y219.372Z2
N9870G01X47.703Y230.372Z2
N9880G01X36.703Y230.372Z2
N9890G01Z1.5F100
N9900G01X36.703Y219.372Z1.5F840
N9910G01X47.703Y219.372Z1.5
N9920G01X47.703Y230.372Z1.5
N9930G01X36.703Y230.372Z1.5
N9940G01Z1F100
N9950G01X36.703Y219.372Z1F840
N9960G01X47.703Y219.372Z1
N9970G01X47.703Y230.372Z1
N9980G01X36.703Y230.372Z1
N9990G01Z0.5F100
N10000G01X36.703Y219.372Z0.5F840
N10010G01X47.703Y219.372Z0.5
N10020G01X47.703Y230.372Z0.5
N10030G01X36.703Y230.372Z0.5
N10040G01Z0F100
N10050G01X36.703Y219.372Z0F840
N10060G01X47.703Y219.372Z0
N10070G01X47.703Y230.372Z0
N10080G01X36.703Y230.372Z0
N10090G01Z-0.499F100
N10100G01X36.703Y219.372Z-0.499F840
N10110G01X47.703Y219.372Z-0.499
N10120G01X47.703Y230.372Z-0.499
N10130G01X36.703Y230.372Z-0.499
N10140G01Z-0.999F100
N10150G01X36.703Y219.372Z-0.999F840
N10160G01X47.703Y219.372Z-0.999
N10170G01X47.703Y230.372Z-0.999
N10180G01X36.703Y230.372Z-0.999
N10190G00Z5
N10200(Sketch)
N10210G00Z5S7000M03
N10220G00X36.703Y211.372
N10230G00Z5
N10240G01Z3F100
N10250G01Z2.5
N10260G01X36.703Y200.372Z2.5F840
N10270G01X47.703Y200.372Z2.5
N10280G01X47.703Y211.372Z2.5
N10290G01X36.703Y211.372Z2.5
N10300G01Z2F100
N10310G01X36.703Y200.372Z2F840
N10320G01X47.703Y200.372Z2
N10330G01X47.703Y211.372Z2
N10340G01X36.703Y211.372Z2
N10350G01Z1.5F100
N10360G01X36.703Y200.372Z1.5F840
N10370G01X47.703Y200.372Z1.5
N10380G01X47.703Y211.372Z1.5
N10390G01X36.703Y211.372Z1.5
N10400G01Z1F100
N10410G01X36.703Y200.372Z1F840
N10420G01X47.703Y200.372Z1
N10430G01X47.703Y211.372Z1
N10440G01X36.703Y211.372Z1
N10450G01Z0.5F100
N10460G01X36.703Y200.372Z0.5F840
N10470G01X47.703Y200.372Z0.5
N10480G01X47.703Y211.372Z0.5
N10490G01X36.703Y211.372Z0.5
N10500G01Z0F100
N10510G01X36.703Y200.372Z0F840
N10520G01X47.703Y200.372Z0
N10530G01X47.703Y211.372Z0
N10540G01X36.703Y211.372Z0
N10550G01Z-0.499F100
N10560G01X36.703Y200.372Z-0.499F840
N10570G01X47.703Y200.372Z-0.499
N10580G01X47.703Y211.372Z-0.499
N10590G01X36.703Y211.372Z-0.499
N10600G01Z-0.999F100
N10610G01X36.703Y200.372Z-0.999F840
N10620G01X47.703Y200.372Z-0.999
N10630G01X47.703Y211.372Z-0.999
N10640G01X36.703Y211.372Z-0.999
N10650G00Z5
N10660(Sketch)
N10670G00Z5S7000M03
N10680G00X36.703Y192.372
N10690G00Z5
N10700G01Z3F100
N10710G01Z2.5
N10720G01X36.703Y181.372Z2.5F840
N10730G01X47.703Y181.372Z2.5
N10740G01X47.703Y192.372Z2.5
N10750G01X36.703Y192.372Z2.5
N10760G01Z2F100
N10770G01X36.703Y181.372Z2F840
N10780G01X47.703Y181.372Z2
N10790G01X47.703Y192.372Z2
N10800G01X36.703Y192.372Z2
N10810G01Z1.5F100
N10820G01X36.703Y181.372Z1.5F840
N10830G01X47.703Y181.372Z1.5
N10840G01X47.703Y192.372Z1.5
N10850G01X36.703Y192.372Z1.5
N10860G01Z1F100
N10870G01X36.703Y181.372Z1F840
N10880G01X47.703Y181.372Z1
N10890G01X47.703Y192.372Z1
N10900G01X36.703Y192.372Z1
N10910G01Z0.5F100
N10920G01X36.703Y181.372Z0.5F840
N10930G01X47.703Y181.372Z0.5
N10940G01X47.703Y192.372Z0.5
N10950G01X36.703Y192.372Z0.5
N10960G01Z0F100
N10970G01X36.703Y181.372Z0F840
N10980G01X47.703Y181.372Z0
N10990G01X47.703Y192.372Z0
N11000G01X36.703Y192.372Z0
N11010G01Z-0.499F100
N11020G01X36.703Y181.372Z-0.499F840
N11030G01X47.703Y181.372Z-0.499
N11040G01X47.703Y192.372Z-0.499
N11050G01X36.703Y192.372Z-0.499
N11060G01Z-0.999F100
N11070G01X36.703Y181.372Z-0.999F840
N11080G01X47.703Y181.372Z-0.999
N11090G01X47.703Y192.372Z-0.999
N11100G01X36.703Y192.372Z-0.999
N11110G00Z5
N11120(Sketch)
N11130G00Z5S7000M03
N11140G00X36.703Y173.372
N11150G00Z5
N11160G01Z3F100
N11170G01Z2.5
N11180G01X36.703Y162.372Z2.5F840
N11190G01X47.703Y162.372Z2.5
N11200G01X47.703Y173.372Z2.5
N11210G01X36.703Y173.372Z2.5
N11220G01Z2F100
N11230G01X36.703Y162.372Z2F840
N11240G01X47.703Y162.372Z2
N11250G01X47.703Y173.372Z2
N11260G01X36.703Y173.372Z2
N11270G01Z1.5F100
N11280G01X36.703Y162.372Z1.5F840
N11290G01X47.703Y162.372Z1.5
N11300G01X47.703Y173.372Z1.5
N11310G01X36.703Y173.372Z1.5
N11320G01Z1F100
N11330G01X36.703Y162.372Z1F840
N11340G01X47.703Y162.372Z1
N11350G01X47.703Y173.372Z1
N11360G01X36.703Y173.372Z1
N11370G01Z0.5F100
N11380G01X36.703Y162.372Z0.5F840
N11390G01X47.703Y162.372Z0.5
N11400G01X47.703Y173.372Z0.5
N11410G01X36.703Y173.372Z0.5
N11420G01Z0F100
N11430G01X36.703Y162.372Z0F840
N11440G01X47.703Y162.372Z0
N11450G01X47.703Y173.372Z0
N11460G01X36.703Y173.372Z0
N11470G01Z-0.499F100
N11480G01X36.703Y162.372Z-0.499F840
N11490G01X47.703Y162.372Z-0.499
N11500G01X47.703Y173.372Z-0.499
N11510G01X36.703Y173.372Z-0.499
N11520G01Z-0.999F100
N11530G01X36.703Y162.372Z-0.999F840
N11540G01X47.703Y162.372Z-0.999
N11550G01X47.703Y173.372Z-0.999
N11560G01X36.703Y173.372Z-0.999
N11570G00Z5
N11580(Sketch)
N11590G00Z5S7000M03
N11600G00X36.703Y154.372
N11610G00Z5
N11620G01Z3F100
N11630G01Z2.5
N11640G01X36.703Y143.372Z2.5F840
N11650G01X47.703Y143.372Z2.5
N11660G01X47.703Y154.372Z2.5
N11670G01X36.703Y154.372Z2.5
N11680G01Z2F100
N11690G01X36.703Y143.372Z2F840
N11700G01X47.703Y143.372Z2
N11710G01X47.703Y154.372Z2
N11720G01X36.703Y154.372Z2
N11730G01Z1.5F100
N11740G01X36.703Y143.372Z1.5F840
N11750G01X47.703Y143.372Z1.5
N11760G01X47.703Y154.372Z1.5
N11770G01X36.703Y154.372Z1.5
N11780G01Z1F100
N11790G01X36.703Y143.372Z1F840
N11800G01X47.703Y143.372Z1
N11810G01X47.703Y154.372Z1
N11820G01X36.703Y154.372Z1
N11830G01Z0.5F100
N11840G01X36.703Y143.372Z0.5F840
N11850G01X47.703Y143.372Z0.5
N11860G01X47.703Y154.372Z0.5
N11870G01X36.703Y154.372Z0.5
N11880G01Z0F100
N11890G01X36.703Y143.372Z0F840
N11900G01X47.703Y143.372Z0
N11910G01X47.703Y154.372Z0
N11920G01X36.703Y154.372Z0
N11930G01Z-0.499F100
N11940G01X36.703Y143.372Z-0.499F840
N11950G01X47.703Y143.372Z-0.499
N11960G01X47.703Y154.372Z-0.499
N11970G01X36.703Y154.372Z-0.499
N11980G01Z-0.999F100
N11990G01X36.703Y143.372Z-0.999F840
N12000G01X47.703Y143.372Z-0.999
N12010G01X47.703Y154.372Z-0.999
N12020G01X36.703Y154.372Z-0.999
N12030G00Z5
N12040(Sketch)
N12050G00Z5S7000M03
N12060G00X36.703Y135.372
N12070G00Z5
N12080G01Z3F100
N12090G01Z2.5
N12100G01X36.703Y124.372Z2.5F840
N12110G01X47.703Y124.372Z2.5
N12120G01X47.703Y135.372Z2.5
N12130G01X36.703Y135.372Z2.5
N12140G01Z2F100
N12150G01X36.703Y124.372Z2F840
N12160G01X47.703Y124.372Z2
N12170G01X47.703Y135.372Z2
N12180G01X36.703Y135.372Z2
N12190G01Z1.5F100
N12200G01X36.703Y124.372Z1.5F840
N12210G01X47.703Y124.372Z1.5
N12220G01X47.703Y135.372Z1.5
N12230G01X36.703Y135.372Z1.5
N12240G01Z1F100
N12250G01X36.703Y124.372Z1F840
N12260G01X47.703Y124.372Z1
N12270G01X47.703Y135.372Z1
N12280G01X36.703Y135.372Z1
N12290G01Z0.5F100
N12300G01X36.703Y124.372Z0.5F840
N12310G01X47.703Y124.372Z0.5
N12320G01X47.703Y135.372Z0.5
N12330G01X36.703Y135.372Z0.5
N12340G01Z0F100
N12350G01X36.703Y124.372Z0F840
N12360G01X47.703Y124.372Z0
N12370G01X47.703Y135.372Z0
N12380G01X36.703Y135.372Z0
N12390G01Z-0.499F100
N12400G01X36.703Y124.372Z-0.499F840
N12410G01X47.703Y124.372Z-0.499
N12420G01X47.703Y135.372Z-0.499
N12430G01X36.703Y135.372Z-0.499
N12440G01Z-0.999F100
N12450G01X36.703Y124.372Z-0.999F840
N12460G01X47.703Y124.372Z-0.999
N12470G01X47.703Y135.372Z-0.999
N12480G01X36.703Y135.372Z-0.999
N12490G00Z5
N12500(Sketch)
N12510G00Z5S7000M03
N12520G00X36.703Y116.372
N12530G00Z5
N12540G01Z3F100
N12550G01Z2.5
N12560G01X36.703Y105.372Z2.5F840
N12570G01X47.703Y105.372Z2.5
N12580G01X47.703Y116.372Z2.5
N12590G01X36.703Y116.372Z2.5
N12600G01Z2F100
N12610G01X36.703Y105.372Z2F840
N12620G01X47.703Y105.372Z2
N12630G01X47.703Y116.372Z2
N12640G01X36.703Y116.372Z2
N12650G01Z1.5F100
N12660G01X36.703Y105.372Z1.5F840
N12670G01X47.703Y105.372Z1.5
N12680G01X47.703Y116.372Z1.5
N12690G01X36.703Y116.372Z1.5
N12700G01Z1F100
N12710G01X36.703Y105.372Z1F840
N12720G01X47.703Y105.372Z1
N12730G01X47.703Y116.372Z1
N12740G01X36.703Y116.372Z1
N12750G01Z0.5F100
N12760G01X36.703Y105.372Z0.5F840
N12770G01X47.703Y105.372Z0.5
N12780G01X47.703Y116.372Z0.5
N12790G01X36.703Y116.372Z0.5
N12800G01Z0F100
N12810G01X36.703Y105.372Z0F840
N12820G01X47.703Y105.372Z0
N12830G01X47.703Y116.372Z0
N12840G01X36.703Y116.372Z0
N12850G01Z-0.499F100
N12860G01X36.703Y105.372Z-0.499F840
N12870G01X47.703Y105.372Z-0.499
N12880G01X47.703Y116.372Z-0.499
N12890G01X36.703Y116.372Z-0.499
N12900G01Z-0.999F100
N12910G01X36.703Y105.372Z-0.999F840
N12920G01X47.703Y105.372Z-0.999
N12930G01X47.703Y116.372Z-0.999
N12940G01X36.703Y116.372Z-0.999
N12950G00Z5
N12960(Sketch)
N12970G00Z5S7000M03
N12980G00X36.703Y97.372
N12990G00Z5
N13000G01Z3F100
N13010G01Z2.5
N13020G01X36.703Y86.372Z2.5F840
N13030G01X47.703Y86.372Z2.5
N13040G01X47.703Y97.372Z2.5
N13050G01X36.703Y97.372Z2.5
N13060G01Z2F100
N13070G01X36.703Y86.372Z2F840
N13080G01X47.703Y86.372Z2
N13090G01X47.703Y97.372Z2
N13100G01X36.703Y97.372Z2
N13110G01Z1.5F100
N13120G01X36.703Y86.372Z1.5F840
N13130G01X47.703Y86.372Z1.5
N13140G01X47.703Y97.372Z1.5
N13150G01X36.703Y97.372Z1.5
N13160G01Z1F100
N13170G01X36.703Y86.372Z1F840
N13180G01X47.703Y86.372Z1
N13190G01X47.703Y97.372Z1
N13200G01X36.703Y97.372Z1
N13210G01Z0.5F100
N13220G01X36.703Y86.372Z0.5F840
N13230G01X47.703Y86.372Z0.5
N13240G01X47.703Y97.372Z0.5
N13250G01X36.703Y97.372Z0.5
N13260G01Z0F100
N13270G01X36.703Y86.372Z0F840
N13280G01X47.703Y86.372Z0
N13290G01X47.703Y97.372Z0
N13300G01X36.703Y97.372Z0
N13310G01Z-0.499F100
N13320G01X36.703Y86.372Z-0.499F840
N13330G01X47.703Y86.372Z-0.499
N13340G01X47.703Y97.372Z-0.499
N13350G01X36.703Y97.372Z-0.499
N13360G01Z-0.999F100
N13370G01X36.703Y86.372Z-0.999F840
N13380G01X47.703Y86.372Z-0.999
N13390G01X47.703Y97.372Z-0.999
N13400G01X36.703Y97.372Z-0.999
N13410G00Z5
N13420(Sketch)
N13430G00Z5S7000M03
N13440G00X36.703Y78.372
N13450G00Z5
N13460G01Z3F100
N13470G01Z2.5
N13480G01X36.703Y67.372Z2.5F840
N13490G01X47.703Y67.372Z2.5
N13500G01X47.703Y78.372Z2.5
N13510G01X36.703Y78.372Z2.5
N13520G01Z2F100
N13530G01X36.703Y67.372Z2F840
N13540G01X47.703Y67.372Z2
N13550G01X47.703Y78.372Z2
N13560G01X36.703Y78.372Z2
N13570G01Z1.5F100
N13580G01X36.703Y67.372Z1.5F840
N13590G01X47.703Y67.372Z1.5
N13600G01X47.703Y78.372Z1.5
N13610G01X36.703Y78.372Z1.5
N13620G01Z1F100
N13630G01X36.703Y67.372Z1F840
N13640G01X47.703Y67.372Z1
N13650G01X47.703Y78.372Z1
N13660G01X36.703Y78.372Z1
N13670G01Z0.5F100
N13680G01X36.703Y67.372Z0.5F840
N13690G01X47.703Y67.372Z0.5
N13700G01X47.703Y78.372Z0.5
N13710G01X36.703Y78.372Z0.5
N13720G01Z0F100
N13730G01X36.703Y67.372Z0F840
N13740G01X47.703Y67.372Z0
N13750G01X47.703Y78.372Z0
N13760G01X36.703Y78.372Z0
N13770G01Z-0.499F100
N13780G01X36.703Y67.372Z-0.499F840
N13790G01X47.703Y67.372Z-0.499
N13800G01X47.703Y78.372Z-0.499
N13810G01X36.703Y78.372Z-0.499
N13820G01Z-0.999F100
N13830G01X36.703Y67.372Z-0.999F840
N13840G01X47.703Y67.372Z-0.999
N13850G01X47.703Y78.372Z-0.999
N13860G01X36.703Y78.372Z-0.999
N13870G00Z5
N13880(Sketch)
N13890G00Z5S7000M03
N13900G00X36.703Y59.372
N13910G00Z5
N13920G01Z3F100
N13930G01Z2.5
N13940G01X36.703Y48.372Z2.5F840
N13950G01X47.703Y48.372Z2.5
N13960G01X47.703Y59.372Z2.5
N13970G01X36.703Y59.372Z2.5
N13980G01Z2F100
N13990G01X36.703Y48.372Z2F840
N14000G01X47.703Y48.372Z2
N14010G01X47.703Y59.372Z2
N14020G01X36.703Y59.372Z2
N14030G01Z1.5F100
N14040G01X36.703Y48.372Z1.5F840
N14050G01X47.703Y48.372Z1.5
N14060G01X47.703Y59.372Z1.5
N14070G01X36.703Y59.372Z1.5
N14080G01Z1F100
N14090G01X36.703Y48.372Z1F840
N14100G01X47.703Y48.372Z1
N14110G01X47.703Y59.372Z1
N14120G01X36.703Y59.372Z1
N14130G01Z0.5F100
N14140G01X36.703Y48.372Z0.5F840
N14150G01X47.703Y48.372Z0.5
N14160G01X47.703Y59.372Z0.5
N14170G01X36.703Y59.372Z0.5
N14180G01Z0F100
N14190G01X36.703Y48.372Z0F840
N14200G01X47.703Y48.372Z0
N14210G01X47.703Y59.372Z0
N14220G01X36.703Y59.372Z0
N14230G01Z-0.499F100
N14240G01X36.703Y48.372Z-0.499F840
N14250G01X47.703Y48.372Z-0.499
N14260G01X47.703Y59.372Z-0.499
N14270G01X36.703Y59.372Z-0.499
N14280G01Z-0.999F100
N14290G01X36.703Y48.372Z-0.999F840
N14300G01X47.703Y48.372Z-0.999
N14310G01X47.703Y59.372Z-0.999
N14320G01X36.703Y59.372Z-0.999
N14330G00Z5
N14340(Sketch)
N14350G00Z5S7000M03
N14360G00X36.703Y40.372
N14370G00Z5
N14380G01Z3F100
N14390G01Z2.5
N14400G01X36.703Y29.372Z2.5F840
N14410G01X47.703Y29.372Z2.5
N14420G01X47.703Y40.372Z2.5
N14430G01X36.703Y40.372Z2.5
N14440G01Z2F100
N14450G01X36.703Y29.372Z2F840
N14460G01X47.703Y29.372Z2
N14470G01X47.703Y40.372Z2
N14480G01X36.703Y40.372Z2
N14490G01Z1.5F100
N14500G01X36.703Y29.372Z1.5F840
N14510G01X47.703Y29.372Z1.5
N14520G01X47.703Y40.372Z1.5
N14530G01X36.703Y40.372Z1.5
N14540G01Z1F100
N14550G01X36.703Y29.372Z1F840
N14560G01X47.703Y29.372Z1
N14570G01X47.703Y40.372Z1
N14580G01X36.703Y40.372Z1
N14590G01Z0.5F100
N14600G01X36.703Y29.372Z0.5F840
N14610G01X47.703Y29.372Z0.5
N14620G01X47.703Y40.372Z0.5
N14630G01X36.703Y40.372Z0.5
N14640G01Z0F100
N14650G01X36.703Y29.372Z0F840
N14660G01X47.703Y29.372Z0
N14670G01X47.703Y40.372Z0
N14680G01X36.703Y40.372Z0
N14690G01Z-0.499F100
N14700G01X36.703Y29.372Z-0.499F840
N14710G01X47.703Y29.372Z-0.499
N14720G01X47.703Y40.372Z-0.499
N14730G01X36.703Y40.372Z-0.499
N14740G01Z-0.999F100
N14750G01X36.703Y29.372Z-0.999F840
N14760G01X47.703Y29.372Z-0.999
N14770G01X47.703Y40.372Z-0.999
N14780G01X36.703Y40.372Z-0.999
N14790G00Z5
N14800(Sketch)
N14810G00Z5S7000M03
N14820G00X36.703Y21.372
N14830G00Z5
N14840G01Z3F100
N14850G01Z2.5
N14860G01X36.703Y10.372Z2.5F840
N14870G01X47.703Y10.372Z2.5
N14880G01X47.703Y21.372Z2.5
N14890G01X36.703Y21.372Z2.5
N14900G01Z2F100
N14910G01X36.703Y10.372Z2F840
N14920G01X47.703Y10.372Z2
N14930G01X47.703Y21.372Z2
N14940G01X36.703Y21.372Z2
N14950G01Z1.5F100
N14960G01X36.703Y10.372Z1.5F840
N14970G01X47.703Y10.372Z1.5
N14980G01X47.703Y21.372Z1.5
N14990G01X36.703Y21.372Z1.5
N15000G01Z1F100
N15010G01X36.703Y10.372Z1F840
N15020G01X47.703Y10.372Z1
N15030G01X47.703Y21.372Z1
N15040G01X36.703Y21.372Z1
N15050G01Z0.5F100
N15060G01X36.703Y10.372Z0.5F840
N15070G01X47.703Y10.372Z0.5
N15080G01X47.703Y21.372Z0.5
N15090G01X36.703Y21.372Z0.5
N15100G01Z0F100
N15110G01X36.703Y10.372Z0F840
N15120G01X47.703Y10.372Z0
N15130G01X47.703Y21.372Z0
N15140G01X36.703Y21.372Z0
N15150G01Z-0.499F100
N15160G01X36.703Y10.372Z-0.499F840
N15170G01X47.703Y10.372Z-0.499
N15180G01X47.703Y21.372Z-0.499
N15190G01X36.703Y21.372Z-0.499
N15200G01Z-0.999F100
N15210G01X36.703Y10.372Z-0.999F840
N15220G01X47.703Y10.372Z-0.999
N15230G01X47.703Y21.372Z-0.999
N15240G01X36.703Y21.372Z-0.999
N15250G00Z5
N15260(Sketch)
N15270G00Z5S7000M03
N15280G00X55.703Y25.997
N15290G00Z5
N15300G01Z3F100
N15310G01Z2.5
N15320G01X55.703Y14.997Z2.5F840
N15330G01X66.703Y14.997Z2.5
N15340G01X66.703Y25.997Z2.5
N15350G01X55.703Y25.997Z2.5
N15360G01Z2F100
N15370G01X55.703Y14.997Z2F840
N15380G01X66.703Y14.997Z2
N15390G01X66.703Y25.997Z2
N15400G01X55.703Y25.997Z2
N15410G01Z1.5F100
N15420G01X55.703Y14.997Z1.5F840
N15430G01X66.703Y14.997Z1.5
N15440G01X66.703Y25.997Z1.5
N15450G01X55.703Y25.997Z1.5
N15460G01Z1F100
N15470G01X55.703Y14.997Z1F840
N15480G01X66.703Y14.997Z1
N15490G01X66.703Y25.997Z1
N15500G01X55.703Y25.997Z1
N15510G01Z0.5F100
N15520G01X55.703Y14.997Z0.5F840
N15530G01X66.703Y14.997Z0.5
N15540G01X66.703Y25.997Z0.5
N15550G01X55.703Y25.997Z0.5
N15560G01Z0F100
N15570G01X55.703Y14.997Z0F840
N15580G01X66.703Y14.997Z0
N15590G01X66.703Y25.997Z0
N15600G01X55.703Y25.997Z0
N15610G01Z-0.499F100
N15620G01X55.703Y14.997Z-0.499F840
N15630G01X66.703Y14.997Z-0.499
N15640G01X66.703Y25.997Z-0.499
N15650G01X55.703Y25.997Z-0.499
N15660G01Z-0.999F100
N15670G01X55.703Y14.997Z-0.999F840
N15680G01X66.703Y14.997Z-0.999
N15690G01X66.703Y25.997Z-0.999
N15700G01X55.703Y25.997Z-0.999
N15710G00Z5
N15720(Sketch)
N15730G00Z5S7000M03
N15740G00X55.703Y49.622
N15750G00Z5
N15760G01Z3F100
N15770G01Z2.5
N15780G01X55.703Y38.622Z2.5F840
N15790G01X66.703Y38.622Z2.5
N15800G01X66.703Y49.622Z2.5
N15810G01X55.703Y49.622Z2.5
N15820G01Z2F100
N15830G01X55.703Y38.622Z2F840
N15840G01X66.703Y38.622Z2
N15850G01X66.703Y49.622Z2
N15860G01X55.703Y49.622Z2
N15870G01Z1.5F100
N15880G01X55.703Y38.622Z1.5F840
N15890G01X66.703Y38.622Z1.5
N15900G01X66.703Y49.622Z1.5
N15910G01X55.703Y49.622Z1.5
N15920G01Z1F100
N15930G01X55.703Y38.622Z1F840
N15940G01X66.703Y38.622Z1
N15950G01X66.703Y49.622Z1
N15960G01X55.703Y49.622Z1
N15970G01Z0.5F100
N15980G01X55.703Y38.622Z0.5F840
N15990G01X66.703Y38.622Z0.5
N16000G01X66.703Y49.622Z0.5
N16010G01X55.703Y49.622Z0.5
N16020G01Z0F100
N16030G01X55.703Y38.622Z0F840
N16040G01X66.703Y38.622Z0
N16050G01X66.703Y49.622Z0
N16060G01X55.703Y49.622Z0
N16070G01Z-0.499F100
N16080G01X55.703Y38.622Z-0.499F840
N16090G01X66.703Y38.622Z-0.499
N16100G01X66.703Y49.622Z-0.499
N16110G01X55.703Y49.622Z-0.499
N16120G01Z-0.999F100
N16130G01X55.703Y38.622Z-0.999F840
N16140G01X66.703Y38.622Z-0.999
N16150G01X66.703Y49.622Z-0.999
N16160G01X55.703Y49.622Z-0.999
N16170G00Z5
N16180(Sketch)
N16190G00Z5S7000M03
N16200G00X55.703Y68.622
N16210G00Z5
N16220G01Z3F100
N16230G01Z2.5
N16240G01X55.703Y57.622Z2.5F840
N16250G01X66.703Y57.622Z2.5
N16260G01X66.703Y68.622Z2.5
N16270G01X55.703Y68.622Z2.5
N16280G01Z2F100
N16290G01X55.703Y57.622Z2F840
N16300G01X66.703Y57.622Z2
N16310G01X66.703Y68.622Z2
N16320G01X55.703Y68.622Z2
N16330G01Z1.5F100
N16340G01X55.703Y57.622Z1.5F840
N16350G01X66.703Y57.622Z1.5
N16360G01X66.703Y68.622Z1.5
N16370G01X55.703Y68.622Z1.5
N16380G01Z1F100
N16390G01X55.703Y57.622Z1F840
N16400G01X66.703Y57.622Z1
N16410G01X66.703Y68.622Z1
N16420G01X55.703Y68.622Z1
N16430G01Z0.5F100
N16440G01X55.703Y57.622Z0.5F840
N16450G01X66.703Y57.622Z0.5
N16460G01X66.703Y68.622Z0.5
N16470G01X55.703Y68.622Z0.5
N16480G01Z0F100
N16490G01X55.703Y57.622Z0F840
N16500G01X66.703Y57.622Z0
N16510G01X66.703Y68.622Z0
N16520G01X55.703Y68.622Z0
N16530G01Z-0.499F100
N16540G01X55.703Y57.622Z-0.499F840
N16550G01X66.703Y57.622Z-0.499
N16560G01X66.703Y68.622Z-0.499
N16570G01X55.703Y68.622Z-0.499
N16580G01Z-0.999F100
N16590G01X55.703Y57.622Z-0.999F840
N16600G01X66.703Y57.622Z-0.999
N16610G01X66.703Y68.622Z-0.999
N16620G01X55.703Y68.622Z-0.999
N16630G00Z5
N16640(Sketch)
N16650G00Z5S7000M03
N16660G00X55.703Y87.622
N16670G00Z5
N16680G01Z3F100
N16690G01Z2.5
N16700G01X55.703Y76.622Z2.5F840
N16710G01X66.703Y76.622Z2.5
N16720G01X66.703Y87.622Z2.5
N16730G01X55.703Y87.622Z2.5
N16740G01Z2F100
N16750G01X55.703Y76.622Z2F840
N16760G01X66.703Y76.622Z2
N16770G01X66.703Y87.622Z2
N16780G01X55.703Y87.622Z2
N16790G01Z1.5F100
N16800G01X55.703Y76.622Z1.5F840
N16810G01X66.703Y76.622Z1.5
N16820G01X66.703Y87.622Z1.5
N16830G01X55.703Y87.622Z1.5
N16840G01Z1F100
N16850G01X55.703Y76.622Z1F840
N16860G01X66.703Y76.622Z1
N16870G01X66.703Y87.622Z1
N16880G01X55.703Y87.622Z1
N16890G01Z0.5F100
N16900G01X55.703Y76.622Z0.5F840
N16910G01X66.703Y76.622Z0.5
N16920G01X66.703Y87.622Z0.5
N16930G01X55.703Y87.622Z0.5
N16940G01Z0F100
N16950G01X55.703Y76.622Z0F840
N16960G01X66.703Y76.622Z0
N16970G01X66.703Y87.622Z0
N16980G01X55.703Y87.622Z0
N16990G01Z-0.499F100
N17000G01X55.703Y76.622Z-0.499F840
N17010G01X66.703Y76.622Z-0.499
N17020G01X66.703Y87.622Z-0.499
N17030G01X55.703Y87.622Z-0.499
N17040G01Z-0.999F100
N17050G01X55.703Y76.622Z-0.999F840
N17060G01X66.703Y76.622Z-0.999
N17070G01X66.703Y87.622Z-0.999
N17080G01X55.703Y87.622Z-0.999
N17090G00Z5
N17100(Sketch)
N17110G00Z5S7000M03
N17120G00X55.703Y106.622
N17130G00Z5
N17140G01Z3F100
N17150G01Z2.5
N17160G01X55.703Y95.622Z2.5F840
N17170G01X66.703Y95.622Z2.5
N17180G01X66.703Y106.622Z2.5
N17190G01X55.703Y106.622Z2.5
N17200G01Z2F100
N17210G01X55.703Y95.622Z2F840
N17220G01X66.703Y95.622Z2
N17230G01X66.703Y106.622Z2
N17240G01X55.703Y106.622Z2
N17250G01Z1.5F100
N17260G01X55.703Y95.622Z1.5F840
N17270G01X66.703Y95.622Z1.5
N17280G01X66.703Y106.622Z1.5
N17290G01X55.703Y106.622Z1.5
N17300G01Z1F100
N17310G01X55.703Y95.622Z1F840
N17320G01X66.703Y95.622Z1
N17330G01X66.703Y106.622Z1
N17340G01X55.703Y106.622Z1
N17350G01Z0.5F100
N17360G01X55.703Y95.622Z0.5F840
N17370G01X66.703Y95.622Z0.5
N17380G01X66.703Y106.622Z0.5
N17390G01X55.703Y106.622Z0.5
N17400G01Z0F100
N17410G01X55.703Y95.622Z0F840
N17420G01X66.703Y95.622Z0
N17430G01X66.703Y106.622Z0
N17440G01X55.703Y106.622Z0
N17450G01Z-0.499F100
N17460G01X55.703Y95.622Z-0.499F840
N17470G01X66.703Y95.622Z-0.499
N17480G01X66.703Y106.622Z-0.499
N17490G01X55.703Y106.622Z-0.499
N17500G01Z-0.999F100
N17510G01X55.703Y95.622Z-0.999F840
N17520G01X66.703Y95.622Z-0.999
N17530G01X66.703Y106.622Z-0.999
N17540G01X55.703Y106.622Z-0.999
N17550G00Z5
N17560(Sketch)
N17570G00Z5S7000M03
N17580G00X55.703Y125.622
N17590G00Z5
N17600G01Z3F100
N17610G01Z2.5
N17620G01X55.703Y114.622Z2.5F840
N17630G01X66.703Y114.622Z2.5
N17640G01X66.703Y125.622Z2.5
N17650G01X55.703Y125.622Z2.5
N17660G01Z2F100
N17670G01X55.703Y114.622Z2F840
N17680G01X66.703Y114.622Z2
N17690G01X66.703Y125.622Z2
N17700G01X55.703Y125.622Z2
N17710G01Z1.5F100
N17720G01X55.703Y114.622Z1.5F840
N17730G01X66.703Y114.622Z1.5
N17740G01X66.703Y125.622Z1.5
N17750G01X55.703Y125.622Z1.5
N17760G01Z1F100
N17770G01X55.703Y114.622Z1F840
N17780G01X66.703Y114.622Z1
N17790G01X66.703Y125.622Z1
N17800G01X55.703Y125.622Z1
N17810G01Z0.5F100
N17820G01X55.703Y114.622Z0.5F840
N17830G01X66.703Y114.622Z0.5
N17840G01X66.703Y125.622Z0.5
N17850G01X55.703Y125.622Z0.5
N17860G01Z0F100
N17870G01X55.703Y114.622Z0F840
N17880G01X66.703Y114.622Z0
N17890G01X66.703Y125.622Z0
N17900G01X55.703Y125.622Z0
N17910G01Z-0.499F100
N17920G01X55.703Y114.622Z-0.499F840
N17930G01X66.703Y114.622Z-0.499
N17940G01X66.703Y125.622Z-0.499
N17950G01X55.703Y125.622Z-0.499
N17960G01Z-0.999F100
N17970G01X55.703Y114.622Z-0.999F840
N17980G01X66.703Y114.622Z-0.999
N17990G01X66.703Y125.622Z-0.999
N18000G01X55.703Y125.622Z-0.999
N18010G00Z5
N18020(Sketch)
N18030G00Z5S7000M03
N18040G00X55.703Y144.622
N18050G00Z5
N18060G01Z3F100
N18070G01Z2.5
N18080G01X55.703Y133.622Z2.5F840
N18090G01X66.703Y133.622Z2.5
N18100G01X66.703Y144.622Z2.5
N18110G01X55.703Y144.622Z2.5
N18120G01Z2F100
N18130G01X55.703Y133.622Z2F840
N18140G01X66.703Y133.622Z2
N18150G01X66.703Y144.622Z2
N18160G01X55.703Y144.622Z2
N18170G01Z1.5F100
N18180G01X55.703Y133.622Z1.5F840
N18190G01X66.703Y133.622Z1.5
N18200G01X66.703Y144.622Z1.5
N18210G01X55.703Y144.622Z1.5
N18220G01Z1F100
N18230G01X55.703Y133.622Z1F840
N18240G01X66.703Y133.622Z1
N18250G01X66.703Y144.622Z1
N18260G01X55.703Y144.622Z1
N18270G01Z0.5F100
N18280G01X55.703Y133.622Z0.5F840
N18290G01X66.703Y133.622Z0.5
N18300G01X66.703Y144.622Z0.5
N18310G01X55.703Y144.622Z0.5
N18320G01Z0F100
N18330G01X55.703Y133.622Z0F840
N18340G01X66.703Y133.622Z0
N18350G01X66.703Y144.622Z0
N18360G01X55.703Y144.622Z0
N18370G01Z-0.499F100
N18380G01X55.703Y133.622Z-0.499F840
N18390G01X66.703Y133.622Z-0.499
N18400G01X66.703Y144.622Z-0.499
N18410G01X55.703Y144.622Z-0.499
N18420G01Z-0.999F100
N18430G01X55.703Y133.622Z-0.999F840
N18440G01X66.703Y133.622Z-0.999
N18450G01X66.703Y144.622Z-0.999
N18460G01X55.703Y144.622Z-0.999
N18470G00Z5
N18480(Sketch)
N18490G00Z5S7000M03
N18500G00X55.703Y163.622
N18510G00Z5
N18520G01Z3F100
N18530G01Z2.5
N18540G01X55.703Y152.622Z2.5F840
N18550G01X66.703Y152.622Z2.5
N18560G01X66.703Y163.622Z2.5
N18570G01X55.703Y163.622Z2.5
N18580G01Z2F100
N18590G01X55.703Y152.622Z2F840
N18600G01X66.703Y152.622Z2
N18610G01X66.703Y163.622Z2
N18620G01X55.703Y163.622Z2
N18630G01Z1.5F100
N18640G01X55.703Y152.622Z1.5F840
N18650G01X66.703Y152.622Z1.5
N18660G01X66.703Y163.622Z1.5
N18670G01X55.703Y163.622Z1.5
N18680G01Z1F100
N18690G01X55.703Y152.622Z1F840
N18700G01X66.703Y152.622Z1
N18710G01X66.703Y163.622Z1
N18720G01X55.703Y163.622Z1
N18730G01Z0.5F100
N18740G01X55.703Y152.622Z0.5F840
N18750G01X66.703Y152.622Z0.5
N18760G01X66.703Y163.622Z0.5
N18770G01X55.703Y163.622Z0.5
N18780G01Z0F100
N18790G01X55.703Y152.622Z0F840
N18800G01X66.703Y152.622Z0
N18810G01X66.703Y163.622Z0
N18820G01X55.703Y163.622Z0
N18830G01Z-0.499F100
N18840G01X55.703Y152.622Z-0.499F840
N18850G01X66.703Y152.622Z-0.499
N18860G01X66.703Y163.622Z-0.499
N18870G01X55.703Y163.622Z-0.499
N18880G01Z-0.999F100
N18890G01X55.703Y152.622Z-0.999F840
N18900G01X66.703Y152.622Z-0.999
N18910G01X66.703Y163.622Z-0.999
N18920G01X55.703Y163.622Z-0.999
N18930G00Z5
N18940(Sketch)
N18950G00Z5S7000M03
N18960G00X55.703Y182.622
N18970G00Z5
N18980G01Z3F100
N18990G01Z2.5
N19000G01X55.703Y171.622Z2.5F840
N19010G01X66.703Y171.622Z2.5
N19020G01X66.703Y182.622Z2.5
N19030G01X55.703Y182.622Z2.5
N19040G01Z2F100
N19050G01X55.703Y171.622Z2F840
N19060G01X66.703Y171.622Z2
N19070G01X66.703Y182.622Z2
N19080G01X55.703Y182.622Z2
N19090G01Z1.5F100
N19100G01X55.703Y171.622Z1.5F840
N19110G01X66.703Y171.622Z1.5
N19120G01X66.703Y182.622Z1.5
N19130G01X55.703Y182.622Z1.5
N19140G01Z1F100
N19150G01X55.703Y171.622Z1F840
N19160G01X66.703Y171.622Z1
N19170G01X66.703Y182.622Z1
N19180G01X55.703Y182.622Z1
N19190G01Z0.5F100
N19200G01X55.703Y171.622Z0.5F840
N19210G01X66.703Y171.622Z0.5
N19220G01X66.703Y182.622Z0.5
N19230G01X55.703Y182.622Z0.5
N19240G01Z0F100
N19250G01X55.703Y171.622Z0F840
N19260G01X66.703Y171.622Z0
N19270G01X66.703Y182.622Z0
N19280G01X55.703Y182.622Z0
N19290G01Z-0.499F100
N19300G01X55.703Y171.622Z-0.499F840
N19310G01X66.703Y171.622Z-0.499
N19320G01X66.703Y182.622Z-0.499
N19330G01X55.703Y182.622Z-0.499
N19340G01Z-0.999F100
N19350G01X55.703Y171.622Z-0.999F840
N19360G01X66.703Y171.622Z-0.999
N19370G01X66.703Y182.622Z-0.999
N19380G01X55.703Y182.622Z-0.999
N19390G00Z5
N19400(Sketch)
N19410G00Z5S7000M03
N19420G00X55.703Y201.622
N19430G00Z5
N19440G01Z3F100
N19450G01Z2.5
N19460G01X55.703Y190.622Z2.5F840
N19470G01X66.703Y190.622Z2.5
N19480G01X66.703Y201.622Z2.5
N19490G01X55.703Y201.622Z2.5
N19500G01Z2F100
N19510G01X55.703Y190.622Z2F840
N19520G01X66.703Y190.622Z2
N19530G01X66.703Y201.622Z2
N19540G01X55.703Y201.622Z2
N19550G01Z1.5F100
N19560G01X55.703Y190.622Z1.5F840
N19570G01X66.703Y190.622Z1.5
N19580G01X66.703Y201.622Z1.5
N19590G01X55.703Y201.622Z1.5
N19600G01Z1F100
N19610G01X55.703Y190.622Z1F840
N19620G01X66.703Y190.622Z1
N19630G01X66.703Y201.622Z1
N19640G01X55.703Y201.622Z1
N19650G01Z0.5F100
N19660G01X55.703Y190.622Z0.5F840
N19670G01X66.703Y190.622Z0.5
N19680G01X66.703Y201.622Z0.5
N19690G01X55.703Y201.622Z0.5
N19700G01Z0F100
N19710G01X55.703Y190.622Z0F840
N19720G01X66.703Y190.622Z0
N19730G01X66.703Y201.622Z0
N19740G01X55.703Y201.622Z0
N19750G01Z-0.499F100
N19760G01X55.703Y190.622Z-0.499F840
N19770G01X66.703Y190.622Z-0.499
N19780G01X66.703Y201.622Z-0.499
N19790G01X55.703Y201.622Z-0.499
N19800G01Z-0.999F100
N19810G01X55.703Y190.622Z-0.999F840
N19820G01X66.703Y190.622Z-0.999
N19830G01X66.703Y201.622Z-0.999
N19840G01X55.703Y201.622Z-0.999
N19850G00Z5
N19860(Sketch)
N19870G00Z5S7000M03
N19880G00X55.703Y220.622
N19890G00Z5
N19900G01Z3F100
N19910G01Z2.5
N19920G01X55.703Y209.622Z2.5F840
N19930G01X66.703Y209.622Z2.5
N19940G01X66.703Y220.622Z2.5
N19950G01X55.703Y220.622Z2.5
N19960G01Z2F100
N19970G01X55.703Y209.622Z2F840
N19980G01X66.703Y209.622Z2
N19990G01X66.703Y220.622Z2
N20000G01X55.703Y220.622Z2
N20010G01Z1.5F100
N20020G01X55.703Y209.622Z1.5F840
N20030G01X66.703Y209.622Z1.5
N20040G01X66.703Y220.622Z1.5
N20050G01X55.703Y220.622Z1.5
N20060G01Z1F100
N20070G01X55.703Y209.622Z1F840
N20080G01X66.703Y209.622Z1
N20090G01X66.703Y220.622Z1
N20100G01X55.703Y220.622Z1
N20110G01Z0.5F100
N20120G01X55.703Y209.622Z0.5F840
N20130G01X66.703Y209.622Z0.5
N20140G01X66.703Y220.622Z0.5
N20150G01X55.703Y220.622Z0.5
N20160G01Z0F100
N20170G01X55.703Y209.622Z0F840
N20180G01X66.703Y209.622Z0
N20190G01X66.703Y220.622Z0
N20200G01X55.703Y220.622Z0
N20210G01Z-0.499F100
N20220G01X55.703Y209.622Z-0.499F840
N20230G01X66.703Y209.622Z-0.499
N20240G01X66.703Y220.622Z-0.499
N20250G01X55.703Y220.622Z-0.499
N20260G01Z-0.999F100
N20270G01X55.703Y209.622Z-0.999F840
N20280G01X66.703Y209.622Z-0.999
N20290G01X66.703Y220.622Z-0.999
N20300G01X55.703Y220.622Z-0.999
N20310G00Z5
N20320(Sketch)
N20330G00Z5S7000M03
N20340G00X55.703Y239.622
N20350G00Z5
N20360G01Z3F100
N20370G01Z2.5
N20380G01X55.703Y228.622Z2.5F840
N20390G01X66.703Y228.622Z2.5
N20400G01X66.703Y239.622Z2.5
N20410G01X55.703Y239.622Z2.5
N20420G01Z2F100
N20430G01X55.703Y228.622Z2F840
N20440G01X66.703Y228.622Z2
N20450G01X66.703Y239.622Z2
N20460G01X55.703Y239.622Z2
N20470G01Z1.5F100
N20480G01X55.703Y228.622Z1.5F840
N20490G01X66.703Y228.622Z1.5
N20500G01X66.703Y239.622Z1.5
N20510G01X55.703Y239.622Z1.5
N20520G01Z1F100
N20530G01X55.703Y228.622Z1F840
N20540G01X66.703Y228.622Z1
N20550G01X66.703Y239.622Z1
N20560G01X55.703Y239.622Z1
N20570G01Z0.5F100
N20580G01X55.703Y228.622Z0.5F840
N20590G01X66.703Y228.622Z0.5
N20600G01X66.703Y239.622Z0.5
N20610G01X55.703Y239.622Z0.5
N20620G01Z0F100
N20630G01X55.703Y228.622Z0F840
N20640G01X66.703Y228.622Z0
N20650G01X66.703Y239.622Z0
N20660G01X55.703Y239.622Z0
N20670G01Z-0.499F100
N20680G01X55.703Y228.622Z-0.499F840
N20690G01X66.703Y228.622Z-0.499
N20700G01X66.703Y239.622Z-0.499
N20710G01X55.703Y239.622Z-0.499
N20720G01Z-0.999F100
N20730G01X55.703Y228.622Z-0.999F840
N20740G01X66.703Y228.622Z-0.999
N20750G01X66.703Y239.622Z-0.999
N20760G01X55.703Y239.622Z-0.999
N20770G00Z5
N20780(Sketch)
N20790G00Z5S7000M03
N20800G00X55.703Y258.622
N20810G00Z5
N20820G01Z3F100
N20830G01Z2.5
N20840G01X55.703Y247.622Z2.5F840
N20850G01X66.703Y247.622Z2.5
N20860G01X66.703Y258.622Z2.5
N20870G01X55.703Y258.622Z2.5
N20880G01Z2F100
N20890G01X55.703Y247.622Z2F840
N20900G01X66.703Y247.622Z2
N20910G01X66.703Y258.622Z2
N20920G01X55.703Y258.622Z2
N20930G01Z1.5F100
N20940G01X55.703Y247.622Z1.5F840
N20950G01X66.703Y247.622Z1.5
N20960G01X66.703Y258.622Z1.5
N20970G01X55.703Y258.622Z1.5
N20980G01Z1F100
N20990G01X55.703Y247.622Z1F840
N21000G01X66.703Y247.622Z1
N21010G01X66.703Y258.622Z1
N21020G01X55.703Y258.622Z1
N21030G01Z0.5F100
N21040G01X55.703Y247.622Z0.5F840
N21050G01X66.703Y247.622Z0.5
N21060G01X66.703Y258.622Z0.5
N21070G01X55.703Y258.622Z0.5
N21080G01Z0F100
N21090G01X55.703Y247.622Z0F840
N21100G01X66.703Y247.622Z0
N21110G01X66.703Y258.622Z0
N21120G01X55.703Y258.622Z0
N21130G01Z-0.499F100
N21140G01X55.703Y247.622Z-0.499F840
N21150G01X66.703Y247.622Z-0.499
N21160G01X66.703Y258.622Z-0.499
N21170G01X55.703Y258.622Z-0.499
N21180G01Z-0.999F100
N21190G01X55.703Y247.622Z-0.999F840
N21200G01X66.703Y247.622Z-0.999
N21210G01X66.703Y258.622Z-0.999
N21220G01X55.703Y258.622Z-0.999
N21230G00Z5
N21240(Sketch)
N21250G00Z5S7000M03
N21260G00X65.203Y284.622
N21270G00Z5
N21280G01Z3F100
N21290G01Z2.5
N21300G01X65.203Y273.622Z2.5F840
N21310G01X76.203Y273.622Z2.5
N21320G01X76.203Y284.622Z2.5
N21330G01X65.203Y284.622Z2.5
N21340G01Z2F100
N21350G01X65.203Y273.622Z2F840
N21360G01X76.203Y273.622Z2
N21370G01X76.203Y284.622Z2
N21380G01X65.203Y284.622Z2
N21390G01Z1.5F100
N21400G01X65.203Y273.622Z1.5F840
N21410G01X76.203Y273.622Z1.5
N21420G01X76.203Y284.622Z1.5
N21430G01X65.203Y284.622Z1.5
N21440G01Z1F100
N21450G01X65.203Y273.622Z1F840
N21460G01X76.203Y273.622Z1
N21470G01X76.203Y284.622Z1
N21480G01X65.203Y284.622Z1
N21490G01Z0.5F100
N21500G01X65.203Y273.622Z0.5F840
N21510G01X76.203Y273.622Z0.5
N21520G01X76.203Y284.622Z0.5
N21530G01X65.203Y284.622Z0.5
N21540G01Z0F100
N21550G01X65.203Y273.622Z0F840
N21560G01X76.203Y273.622Z0
N21570G01X76.203Y284.622Z0
N21580G01X65.203Y284.622Z0
N21590G01Z-0.499F100
N21600G01X65.203Y273.622Z-0.499F840
N21610G01X76.203Y273.622Z-0.499
N21620G01X76.203Y284.622Z-0.499
N21630G01X65.203Y284.622Z-0.499
N21640G01Z-0.999F100
N21650G01X65.203Y273.622Z-0.999F840
N21660G01X76.203Y273.622Z-0.999
N21670G01X76.203Y284.622Z-0.999
N21680G01X65.203Y284.622Z-0.999
N21690G00Z5
N21700(Sketch)
N21710G00Z5S7000M03
N21720G00X55.703Y315.872
N21730G00Z5
N21740G01Z3F100
N21750G01Z2.5
N21760G01X55.703Y304.872Z2.5F840
N21770G01X66.703Y304.872Z2.5
N21780G01X66.703Y315.872Z2.5
N21790G01X55.703Y315.872Z2.5
N21800G01Z2F100
N21810G01X55.703Y304.872Z2F840
N21820G01X66.703Y304.872Z2
N21830G01X66.703Y315.872Z2
N21840G01X55.703Y315.872Z2
N21850G01Z1.5F100
N21860G01X55.703Y304.872Z1.5F840
N21870G01X66.703Y304.872Z1.5
N21880G01X66.703Y315.872Z1.5
N21890G01X55.703Y315.872Z1.5
N21900G01Z1F100
N21910G01X55.703Y304.872Z1F840
N21920G01X66.703Y304.872Z1
N21930G01X66.703Y315.872Z1
N21940G01X55.703Y315.872Z1
N21950G01Z0.5F100
N21960G01X55.703Y304.872Z0.5F840
N21970G01X66.703Y304.872Z0.5
N21980G01X66.703Y315.872Z0.5
N21990G01X55.703Y315.872Z0.5
N22000G01Z0F100
N22010G01X55.703Y304.872Z0F840
N22020G01X66.703Y304.872Z0
N22030G01X66.703Y315.872Z0
N22040G01X55.703Y315.872Z0
N22050G01Z-0.499F100
N22060G01X55.703Y304.872Z-0.499F840
N22070G01X66.703Y304.872Z-0.499
N22080G01X66.703Y315.872Z-0.499
N22090G01X55.703Y315.872Z-0.499
N22100G01Z-0.999F100
N22110G01X55.703Y304.872Z-0.999F840
N22120G01X66.703Y304.872Z-0.999
N22130G01X66.703Y315.872Z-0.999
N22140G01X55.703Y315.872Z-0.999
N22150G00Z5
N22160(Sketch)
N22170G00Z5S7000M03
N22180G00X55.703Y334.872
N22190G00Z5
N22200G01Z3F100
N22210G01Z2.5
N22220G01X55.703Y323.872Z2.5F840
N22230G01X66.703Y323.872Z2.5
N22240G01X66.703Y334.872Z2.5
N22250G01X55.703Y334.872Z2.5
N22260G01Z2F100
N22270G01X55.703Y323.872Z2F840
N22280G01X66.703Y323.872Z2
N22290G01X66.703Y334.872Z2
N22300G01X55.703Y334.872Z2
N22310G01Z1.5F100
N22320G01X55.703Y323.872Z1.5F840
N22330G01X66.703Y323.872Z1.5
N22340G01X66.703Y334.872Z1.5
N22350G01X55.703Y334.872Z1.5
N22360G01Z1F100
N22370G01X55.703Y323.872Z1F840
N22380G01X66.703Y323.872Z1
N22390G01X66.703Y334.872Z1
N22400G01X55.703Y334.872Z1
N22410G01Z0.5F100
N22420G01X55.703Y323.872Z0.5F840
N22430G01X66.703Y323.872Z0.5
N22440G01X66.703Y334.872Z0.5
N22450G01X55.703Y334.872Z0.5
N22460G01Z0F100
N22470G01X55.703Y323.872Z0F840
N22480G01X66.703Y323.872Z0
N22490G01X66.703Y334.872Z0
N22500G01X55.703Y334.872Z0
N22510G01Z-0.499F100
N22520G01X55.703Y323.872Z-0.499F840
N22530G01X66.703Y323.872Z-0.499
N22540G01X66.703Y334.872Z-0.499
N22550G01X55.703Y334.872Z-0.499
N22560G01Z-0.999F100
N22570G01X55.703Y323.872Z-0.999F840
N22580G01X66.703Y323.872Z-0.999
N22590G01X66.703Y334.872Z-0.999
N22600G01X55.703Y334.872Z-0.999
N22610G00Z5
N22620(Sketch)
N22630G00Z5S7000M03
N22640G00X55.703Y353.872
N22650G00Z5
N22660G01Z3F100
N22670G01Z2.5
N22680G01X55.703Y342.872Z2.5F840
N22690G01X66.703Y342.872Z2.5
N22700G01X66.703Y353.872Z2.5
N22710G01X55.703Y353.872Z2.5
N22720G01Z2F100
N22730G01X55.703Y342.872Z2F840
N22740G01X66.703Y342.872Z2
N22750G01X66.703Y353.872Z2
N22760G01X55.703Y353.872Z2
N22770G01Z1.5F100
N22780G01X55.703Y342.872Z1.5F840
N22790G01X66.703Y342.872Z1.5
N22800G01X66.703Y353.872Z1.5
N22810G01X55.703Y353.872Z1.5
N22820G01Z1F100
N22830G01X55.703Y342.872Z1F840
N22840G01X66.703Y342.872Z1
N22850G01X66.703Y353.872Z1
N22860G01X55.703Y353.872Z1
N22870G01Z0.5F100
N22880G01X55.703Y342.872Z0.5F840
N22890G01X66.703Y342.872Z0.5
N22900G01X66.703Y353.872Z0.5
N22910G01X55.703Y353.872Z0.5
N22920G01Z0F100
N22930G01X55.703Y342.872Z0F840
N22940G01X66.703Y342.872Z0
N22950G01X66.703Y353.872Z0
N22960G01X55.703Y353.872Z0
N22970G01Z-0.499F100
N22980G01X55.703Y342.872Z-0.499F840
N22990G01X66.703Y342.872Z-0.499
N23000G01X66.703Y353.872Z-0.499
N23010G01X55.703Y353.872Z-0.499
N23020G01Z-0.999F100
N23030G01X55.703Y342.872Z-0.999F840
N23040G01X66.703Y342.872Z-0.999
N23050G01X66.703Y353.872Z-0.999
N23060G01X55.703Y353.872Z-0.999
N23070G00Z5
N23080(Sketch)
N23090G00Z5S7000M03
N23100G00X112.703Y353.872
N23110G00Z5
N23120G01Z3F100
N23130G01Z2.5
N23140G01X112.703Y342.872Z2.5F840
N23150G01X123.703Y342.872Z2.5
N23160G01X123.703Y353.872Z2.5
N23170G01X112.703Y353.872Z2.5
N23180G01Z2F100
N23190G01X112.703Y342.872Z2F840
N23200G01X123.703Y342.872Z2
N23210G01X123.703Y353.872Z2
N23220G01X112.703Y353.872Z2
N23230G01Z1.5F100
N23240G01X112.703Y342.872Z1.5F840
N23250G01X123.703Y342.872Z1.5
N23260G01X123.703Y353.872Z1.5
N23270G01X112.703Y353.872Z1.5
N23280G01Z1F100
N23290G01X112.703Y342.872Z1F840
N23300G01X123.703Y342.872Z1
N23310G01X123.703Y353.872Z1
N23320G01X112.703Y353.872Z1
N23330G01Z0.5F100
N23340G01X112.703Y342.872Z0.5F840
N23350G01X123.703Y342.872Z0.5
N23360G01X123.703Y353.872Z0.5
N23370G01X112.703Y353.872Z0.5
N23380G01Z0F100
N23390G01X112.703Y342.872Z0F840
N23400G01X123.703Y342.872Z0
N23410G01X123.703Y353.872Z0
N23420G01X112.703Y353.872Z0
N23430G01Z-0.499F100
N23440G01X112.703Y342.872Z-0.499F840
N23450G01X123.703Y342.872Z-0.499
N23460G01X123.703Y353.872Z-0.499
N23470G01X112.703Y353.872Z-0.499
N23480G01Z-0.999F100
N23490G01X112.703Y342.872Z-0.999F840
N23500G01X123.703Y342.872Z-0.999
N23510G01X123.703Y353.872Z-0.999
N23520G01X112.703Y353.872Z-0.999
N23530G00Z5
N23540(Sketch)
N23550G00Z5S7000M03
N23560G00X112.703Y334.872
N23570G00Z5
N23580G01Z3F100
N23590G01Z2.5
N23600G01X112.703Y323.872Z2.5F840
N23610G01X123.703Y323.872Z2.5
N23620G01X123.703Y334.872Z2.5
N23630G01X112.703Y334.872Z2.5
N23640G01Z2F100
N23650G01X112.703Y323.872Z2F840
N23660G01X123.703Y323.872Z2
N23670G01X123.703Y334.872Z2
N23680G01X112.703Y334.872Z2
N23690G01Z1.5F100
N23700G01X112.703Y323.872Z1.5F840
N23710G01X123.703Y323.872Z1.5
N23720G01X123.703Y334.872Z1.5
N23730G01X112.703Y334.872Z1.5
N23740G01Z1F100
N23750G01X112.703Y323.872Z1F840
N23760G01X123.703Y323.872Z1
N23770G01X123.703Y334.872Z1
N23780G01X112.703Y334.872Z1
N23790G01Z0.5F100
N23800G01X112.703Y323.872Z0.5F840
N23810G01X123.703Y323.872Z0.5
N23820G01X123.703Y334.872Z0.5
N23830G01X112.703Y334.872Z0.5
N23840G01Z0F100
N23850G01X112.703Y323.872Z0F840
N23860G01X123.703Y323.872Z0
N23870G01X123.703Y334.872Z0
N23880G01X112.703Y334.872Z0
N23890G01Z-0.499F100
N23900G01X112.703Y323.872Z-0.499F840
N23910G01X123.703Y323.872Z-0.499
N23920G01X123.703Y334.872Z-0.499
N23930G01X112.703Y334.872Z-0.499
N23940G01Z-0.999F100
N23950G01X112.703Y323.872Z-0.999F840
N23960G01X123.703Y323.872Z-0.999
N23970G01X123.703Y334.872Z-0.999
N23980G01X112.703Y334.872Z-0.999
N23990G00Z5
N24000(Sketch)
N24010G00Z5S7000M03
N24020G00X93.703Y334.872
N24030G00Z5
N24040G01Z3F100
N24050G01Z2.5
N24060G01X93.703Y323.872Z2.5F840
N24070G01X104.703Y323.872Z2.5
N24080G01X104.703Y334.872Z2.5
N24090G01X93.703Y334.872Z2.5
N24100G01Z2F100
N24110G01X93.703Y323.872Z2F840
N24120G01X104.703Y323.872Z2
N24130G01X104.703Y334.872Z2
N24140G01X93.703Y334.872Z2
N24150G01Z1.5F100
N24160G01X93.703Y323.872Z1.5F840
N24170G01X104.703Y323.872Z1.5
N24180G01X104.703Y334.872Z1.5
N24190G01X93.703Y334.872Z1.5
N24200G01Z1F100
N24210G01X93.703Y323.872Z1F840
N24220G01X104.703Y323.872Z1
N24230G01X104.703Y334.872Z1
N24240G01X93.703Y334.872Z1
N24250G01Z0.5F100
N24260G01X93.703Y323.872Z0.5F840
N24270G01X104.703Y323.872Z0.5
N24280G01X104.703Y334.872Z0.5
N24290G01X93.703Y334.872Z0.5
N24300G01Z0F100
N24310G01X93.703Y323.872Z0F840
N24320G01X104.703Y323.872Z0
N24330G01X104.703Y334.872Z0
N24340G01X93.703Y334.872Z0
N24350G01Z-0.499F100
N24360G01X93.703Y323.872Z-0.499F840
N24370G01X104.703Y323.872Z-0.499
N24380G01X104.703Y334.872Z-0.499
N24390G01X93.703Y334.872Z-0.499
N24400G01Z-0.999F100
N24410G01X93.703Y323.872Z-0.999F840
N24420G01X104.703Y323.872Z-0.999
N24430G01X104.703Y334.872Z-0.999
N24440G01X93.703Y334.872Z-0.999
N24450G00Z5
N24460(Sketch)
N24470G00Z5S7000M03
N24480G00X112.703Y315.872
N24490G00Z5
N24500G01Z3F100
N24510G01Z2.5
N24520G01X112.703Y304.872Z2.5F840
N24530G01X123.703Y304.872Z2.5
N24540G01X123.703Y315.872Z2.5
N24550G01X112.703Y315.872Z2.5
N24560G01Z2F100
N24570G01X112.703Y304.872Z2F840
N24580G01X123.703Y304.872Z2
N24590G01X123.703Y315.872Z2
N24600G01X112.703Y315.872Z2
N24610G01Z1.5F100
N24620G01X112.703Y304.872Z1.5F840
N24630G01X123.703Y304.872Z1.5
N24640G01X123.703Y315.872Z1.5
N24650G01X112.703Y315.872Z1.5
N24660G01Z1F100
N24670G01X112.703Y304.872Z1F840
N24680G01X123.703Y304.872Z1
N24690G01X123.703Y315.872Z1
N24700G01X112.703Y315.872Z1
N24710G01Z0.5F100
N24720G01X112.703Y304.872Z0.5F840
N24730G01X123.703Y304.872Z0.5
N24740G01X123.703Y315.872Z0.5
N24750G01X112.703Y315.872Z0.5
N24760G01Z0F100
N24770G01X112.703Y304.872Z0F840
N24780G01X123.703Y304.872Z0
N24790G01X123.703Y315.872Z0
N24800G01X112.703Y315.872Z0
N24810G01Z-0.499F100
N24820G01X112.703Y304.872Z-0.499F840
N24830G01X123.703Y304.872Z-0.499
N24840G01X123.703Y315.872Z-0.499
N24850G01X112.703Y315.872Z-0.499
N24860G01Z-0.999F100
N24870G01X112.703Y304.872Z-0.999F840
N24880G01X123.703Y304.872Z-0.999
N24890G01X123.703Y315.872Z-0.999
N24900G01X112.703Y315.872Z-0.999
N24910G00Z5
N24920(Sketch)
N24930G00Z5S7000M03
N24940G00X112.703Y282.444
N24950G00Z5
N24960G01Z3F100
N24970G01Z2.5
N24980G01X112.703Y271.444Z2.5F840
N24990G01X123.703Y271.444Z2.5
N25000G01X123.703Y282.444Z2.5
N25010G01X112.703Y282.444Z2.5
N25020G01Z2F100
N25030G01X112.703Y271.444Z2F840
N25040G01X123.703Y271.444Z2
N25050G01X123.703Y282.444Z2
N25060G01X112.703Y282.444Z2
N25070G01Z1.5F100
N25080G01X112.703Y271.444Z1.5F840
N25090G01X123.703Y271.444Z1.5
N25100G01X123.703Y282.444Z1.5
N25110G01X112.703Y282.444Z1.5
N25120G01Z1F100
N25130G01X112.703Y271.444Z1F840
N25140G01X123.703Y271.444Z1
N25150G01X123.703Y282.444Z1
N25160G01X112.703Y282.444Z1
N25170G01Z0.5F100
N25180G01X112.703Y271.444Z0.5F840
N25190G01X123.703Y271.444Z0.5
N25200G01X123.703Y282.444Z0.5
N25210G01X112.703Y282.444Z0.5
N25220G01Z0F100
N25230G01X112.703Y271.444Z0F840
N25240G01X123.703Y271.444Z0
N25250G01X123.703Y282.444Z0
N25260G01X112.703Y282.444Z0
N25270G01Z-0.499F100
N25280G01X112.703Y271.444Z-0.499F840
N25290G01X123.703Y271.444Z-0.499
N25300G01X123.703Y282.444Z-0.499
N25310G01X112.703Y282.444Z-0.499
N25320G01Z-0.999F100
N25330G01X112.703Y271.444Z-0.999F840
N25340G01X123.703Y271.444Z-0.999
N25350G01X123.703Y282.444Z-0.999
N25360G01X112.703Y282.444Z-0.999
N25370G00Z5
N25380(Sketch)
N25390G00Z5S7000M03
N25400G00X112.703Y258.79
N25410G00Z5
N25420G01Z3F100
N25430G01Z2.5
N25440G01X112.703Y247.79Z2.5F840
N25450G01X123.703Y247.79Z2.5
N25460G01X123.703Y258.79Z2.5
N25470G01X112.703Y258.79Z2.5
N25480G01Z2F100
N25490G01X112.703Y247.79Z2F840
N25500G01X123.703Y247.79Z2
N25510G01X123.703Y258.79Z2
N25520G01X112.703Y258.79Z2
N25530G01Z1.5F100
N25540G01X112.703Y247.79Z1.5F840
N25550G01X123.703Y247.79Z1.5
N25560G01X123.703Y258.79Z1.5
N25570G01X112.703Y258.79Z1.5
N25580G01Z1F100
N25590G01X112.703Y247.79Z1F840
N25600G01X123.703Y247.79Z1
N25610G01X123.703Y258.79Z1
N25620G01X112.703Y258.79Z1
N25630G01Z0.5F100
N25640G01X112.703Y247.79Z0.5F840
N25650G01X123.703Y247.79Z0.5
N25660G01X123.703Y258.79Z0.5
N25670G01X112.703Y258.79Z0.5
N25680G01Z0F100
N25690G01X112.703Y247.79Z0F840
N25700G01X123.703Y247.79Z0
N25710G01X123.703Y258.79Z0
N25720G01X112.703Y258.79Z0
N25730G01Z-0.499F100
N25740G01X112.703Y247.79Z-0.499F840
N25750G01X123.703Y247.79Z-0.499
N25760G01X123.703Y258.79Z-0.499
N25770G01X112.703Y258.79Z-0.499
N25780G01Z-0.999F100
N25790G01X112.703Y247.79Z-0.999F840
N25800G01X123.703Y247.79Z-0.999
N25810G01X123.703Y258.79Z-0.999
N25820G01X112.703Y258.79Z-0.999
N25830G00Z5
N25840(Sketch)
N25850G00Z5S7000M03
N25860G00X112.703Y235.137
N25870G00Z5
N25880G01Z3F100
N25890G01Z2.5
N25900G01X112.703Y224.137Z2.5F840
N25910G01X123.703Y224.137Z2.5
N25920G01X123.703Y235.137Z2.5
N25930G01X112.703Y235.137Z2.5
N25940G01Z2F100
N25950G01X112.703Y224.137Z2F840
N25960G01X123.703Y224.137Z2
N25970G01X123.703Y235.137Z2
N25980G01X112.703Y235.137Z2
N25990G01Z1.5F100
N26000G01X112.703Y224.137Z1.5F840
N26010G01X123.703Y224.137Z1.5
N26020G01X123.703Y235.137Z1.5
N26030G01X112.703Y235.137Z1.5
N26040G01Z1F100
N26050G01X112.703Y224.137Z1F840
N26060G01X123.703Y224.137Z1
N26070G01X123.703Y235.137Z1
N26080G01X112.703Y235.137Z1
N26090G01Z0.5F100
N26100G01X112.703Y224.137Z0.5F840
N26110G01X123.703Y224.137Z0.5
N26120G01X123.703Y235.137Z0.5
N26130G01X112.703Y235.137Z0.5
N26140G01Z0F100
N26150G01X112.703Y224.137Z0F840
N26160G01X123.703Y224.137Z0
N26170G01X123.703Y235.137Z0
N26180G01X112.703Y235.137Z0
N26190G01Z-0.499F100
N26200G01X112.703Y224.137Z-0.499F840
N26210G01X123.703Y224.137Z-0.499
N26220G01X123.703Y235.137Z-0.499
N26230G01X112.703Y235.137Z-0.499
N26240G01Z-0.999F100
N26250G01X112.703Y224.137Z-0.999F840
N26260G01X123.703Y224.137Z-0.999
N26270G01X123.703Y235.137Z-0.999
N26280G01X112.703Y235.137Z-0.999
N26290G00Z5
N26300(Sketch)
N26310G00Z5S7000M03
N26320G00X112.703Y206.792
N26330G00Z5
N26340G01Z3F100
N26350G01Z2.5
N26360G01X112.703Y195.792Z2.5F840
N26370G01X123.703Y195.792Z2.5
N26380G01X123.703Y206.792Z2.5
N26390G01X112.703Y206.792Z2.5
N26400G01Z2F100
N26410G01X112.703Y195.792Z2F840
N26420G01X123.703Y195.792Z2
N26430G01X123.703Y206.792Z2
N26440G01X112.703Y206.792Z2
N26450G01Z1.5F100
N26460G01X112.703Y195.792Z1.5F840
N26470G01X123.703Y195.792Z1.5
N26480G01X123.703Y206.792Z1.5
N26490G01X112.703Y206.792Z1.5
N26500G01Z1F100
N26510G01X112.703Y195.792Z1F840
N26520G01X123.703Y195.792Z1
N26530G01X123.703Y206.792Z1
N26540G01X112.703Y206.792Z1
N26550G01Z0.5F100
N26560G01X112.703Y195.792Z0.5F840
N26570G01X123.703Y195.792Z0.5
N26580G01X123.703Y206.792Z0.5
N26590G01X112.703Y206.792Z0.5
N26600G01Z0F100
N26610G01X112.703Y195.792Z0F840
N26620G01X123.703Y195.792Z0
N26630G01X123.703Y206.792Z0
N26640G01X112.703Y206.792Z0
N26650G01Z-0.499F100
N26660G01X112.703Y195.792Z-0.499F840
N26670G01X123.703Y195.792Z-0.499
N26680G01X123.703Y206.792Z-0.499
N26690G01X112.703Y206.792Z-0.499
N26700G01Z-0.999F100
N26710G01X112.703Y195.792Z-0.999F840
N26720G01X123.703Y195.792Z-0.999
N26730G01X123.703Y206.792Z-0.999
N26740G01X112.703Y206.792Z-0.999
N26750G00Z5
N26760(Sketch)
N26770G00Z5S7000M03
N26780G00X112.703Y144.763
N26790G00Z5
N26800G01Z3F100
N26810G01Z2.5
N26820G01X112.703Y133.763Z2.5F840
N26830G01X123.703Y133.763Z2.5
N26840G01X123.703Y144.763Z2.5
N26850G01X112.703Y144.763Z2.5
N26860G01Z2F100
N26870G01X112.703Y133.763Z2F840
N26880G01X123.703Y133.763Z2
N26890G01X123.703Y144.763Z2
N26900G01X112.703Y144.763Z2
N26910G01Z1.5F100
N26920G01X112.703Y133.763Z1.5F840
N26930G01X123.703Y133.763Z1.5
N26940G01X123.703Y144.763Z1.5
N26950G01X112.703Y144.763Z1.5
N26960G01Z1F100
N26970G01X112.703Y133.763Z1F840
N26980G01X123.703Y133.763Z1
N26990G01X123.703Y144.763Z1
N27000G01X112.703Y144.763Z1
N27010G01Z0.5F100
N27020G01X112.703Y133.763Z0.5F840
N27030G01X123.703Y133.763Z0.5
N27040G01X123.703Y144.763Z0.5
N27050G01X112.703Y144.763Z0.5
N27060G01Z0F100
N27070G01X112.703Y133.763Z0F840
N27080G01X123.703Y133.763Z0
N27090G01X123.703Y144.763Z0
N27100G01X112.703Y144.763Z0
N27110G01Z-0.499F100
N27120G01X112.703Y133.763Z-0.499F840
N27130G01X123.703Y133.763Z-0.499
N27140G01X123.703Y144.763Z-0.499
N27150G01X112.703Y144.763Z-0.499
N27160G01Z-0.999F100
N27170G01X112.703Y133.763Z-0.999F840
N27180G01X123.703Y133.763Z-0.999
N27190G01X123.703Y144.763Z-0.999
N27200G01X112.703Y144.763Z-0.999
N27210G00Z5
N27220(Sketch)
N27230G00Z5S7000M03
N27240G00X112.703Y82.734
N27250G00Z5
N27260G01Z3F100
N27270G01Z2.5
N27280G01X112.703Y71.734Z2.5F840
N27290G01X123.703Y71.734Z2.5
N27300G01X123.703Y82.734Z2.5
N27310G01X112.703Y82.734Z2.5
N27320G01Z2F100
N27330G01X112.703Y71.734Z2F840
N27340G01X123.703Y71.734Z2
N27350G01X123.703Y82.734Z2
N27360G01X112.703Y82.734Z2
N27370G01Z1.5F100
N27380G01X112.703Y71.734Z1.5F840
N27390G01X123.703Y71.734Z1.5
N27400G01X123.703Y82.734Z1.5
N27410G01X112.703Y82.734Z1.5
N27420G01Z1F100
N27430G01X112.703Y71.734Z1F840
N27440G01X123.703Y71.734Z1
N27450G01X123.703Y82.734Z1
N27460G01X112.703Y82.734Z1
N27470G01Z0.5F100
N27480G01X112.703Y71.734Z0.5F840
N27490G01X123.703Y71.734Z0.5
N27500G01X123.703Y82.734Z0.5
N27510G01X112.703Y82.734Z0.5
N27520G01Z0F100
N27530G01X112.703Y71.734Z0F840
N27540G01X123.703Y71.734Z0
N27550G01X123.703Y82.734Z0
N27560G01X112.703Y82.734Z0
N27570G01Z-0.499F100
N27580G01X112.703Y71.734Z-0.499F840
N27590G01X123.703Y71.734Z-0.499
N27600G01X123.703Y82.734Z-0.499
N27610G01X112.703Y82.734Z-0.499
N27620G01Z-0.999F100
N27630G01X112.703Y71.734Z-0.999F840
N27640G01X123.703Y71.734Z-0.999
N27650G01X123.703Y82.734Z-0.999
N27660G01X112.703Y82.734Z-0.999
N27670G00Z5
N27680(Sketch)
N27690G00Z5S7000M03
N27700G00X112.703Y54.39
N27710G00Z5
N27720G01Z3F100
N27730G01Z2.5
N27740G01X112.703Y43.39Z2.5F840
N27750G01X123.703Y43.39Z2.5
N27760G01X123.703Y54.39Z2.5
N27770G01X112.703Y54.39Z2.5
N27780G01Z2F100
N27790G01X112.703Y43.39Z2F840
N27800G01X123.703Y43.39Z2
N27810G01X123.703Y54.39Z2
N27820G01X112.703Y54.39Z2
N27830G01Z1.5F100
N27840G01X112.703Y43.39Z1.5F840
N27850G01X123.703Y43.39Z1.5
N27860G01X123.703Y54.39Z1.5
N27870G01X112.703Y54.39Z1.5
N27880G01Z1F100
N27890G01X112.703Y43.39Z1F840
N27900G01X123.703Y43.39Z1
N27910G01X123.703Y54.39Z1
N27920G01X112.703Y54.39Z1
N27930G01Z0.5F100
N27940G01X112.703Y43.39Z0.5F840
N27950G01X123.703Y43.39Z0.5
N27960G01X123.703Y54.39Z0.5
N27970G01X112.703Y54.39Z0.5
N27980G01Z0F100
N27990G01X112.703Y43.39Z0F840
N28000G01X123.703Y43.39Z0
N28010G01X123.703Y54.39Z0
N28020G01X112.703Y54.39Z0
N28030G01Z-0.499F100
N28040G01X112.703Y43.39Z-0.499F840
N28050G01X123.703Y43.39Z-0.499
N28060G01X123.703Y54.39Z-0.499
N28070G01X112.703Y54.39Z-0.499
N28080G01Z-0.999F100
N28090G01X112.703Y43.39Z-0.999F840
N28100G01X123.703Y43.39Z-0.999
N28110G01X123.703Y54.39Z-0.999
N28120G01X112.703Y54.39Z-0.999
N28130G00Z5
N28140(Sketch)
N28150G00Z5S7000M03
N28160G00X112.703Y26.045
N28170G00Z5
N28180G01Z3F100
N28190G01Z2.5
N28200G01X112.703Y15.045Z2.5F840
N28210G01X123.703Y15.045Z2.5
N28220G01X123.703Y26.045Z2.5
N28230G01X112.703Y26.045Z2.5
N28240G01Z2F100
N28250G01X112.703Y15.045Z2F840
N28260G01X123.703Y15.045Z2
N28270G01X123.703Y26.045Z2
N28280G01X112.703Y26.045Z2
N28290G01Z1.5F100
N28300G01X112.703Y15.045Z1.5F840
N28310G01X123.703Y15.045Z1.5
N28320G01X123.703Y26.045Z1.5
N28330G01X112.703Y26.045Z1.5
N28340G01Z1F100
N28350G01X112.703Y15.045Z1F840
N28360G01X123.703Y15.045Z1
N28370G01X123.703Y26.045Z1
N28380G01X112.703Y26.045Z1
N28390G01Z0.5F100
N28400G01X112.703Y15.045Z0.5F840
N28410G01X123.703Y15.045Z0.5
N28420G01X123.703Y26.045Z0.5
N28430G01X112.703Y26.045Z0.5
N28440G01Z0F100
N28450G01X112.703Y15.045Z0F840
N28460G01X123.703Y15.045Z0
N28470G01X123.703Y26.045Z0
N28480G01X112.703Y26.045Z0
N28490G01Z-0.499F100
N28500G01X112.703Y15.045Z-0.499F840
N28510G01X123.703Y15.045Z-0.499
N28520G01X123.703Y26.045Z-0.499
N28530G01X112.703Y26.045Z-0.499
N28540G01Z-0.999F100
N28550G01X112.703Y15.045Z-0.999F840
N28560G01X123.703Y15.045Z-0.999
N28570G01X123.703Y26.045Z-0.999
N28580G01X112.703Y26.045Z-0.999
N28590G00Z5
N28600(Sketch)
N28610G00Z5S7000M03
N28620G00X93.701Y23.408
N28630G00Z5
N28640G01Z3F100
N28650G01Z2.5
N28660G01X93.701Y12.722Z2.5F840
N28670G01X104.703Y12.722Z2.5
N28680G01X104.703Y23.408Z2.5
N28690G01X93.701Y23.408Z2.5
N28700G01Z2F100
N28710G01X93.701Y12.722Z2F840
N28720G01X104.703Y12.722Z2
N28730G01X104.703Y23.408Z2
N28740G01X93.701Y23.408Z2
N28750G01Z1.5F100
N28760G01X93.701Y12.722Z1.5F840
N28770G01X104.703Y12.722Z1.5
N28780G01X104.703Y23.408Z1.5
N28790G01X93.701Y23.408Z1.5
N28800G01Z1F100
N28810G01X93.701Y12.722Z1F840
N28820G01X104.703Y12.722Z1
N28830G01X104.703Y23.408Z1
N28840G01X93.701Y23.408Z1
N28850G01Z0.5F100
N28860G01X93.701Y12.722Z0.5F840
N28870G01X104.703Y12.722Z0.5
N28880G01X104.703Y23.408Z0.5
N28890G01X93.701Y23.408Z0.5
N28900G01Z0F100
N28910G01X93.701Y12.722Z0F840
N28920G01X104.703Y12.722Z0
N28930G01X104.703Y23.408Z0
N28940G01X93.701Y23.408Z0
N28950G01Z-0.499F100
N28960G01X93.701Y12.722Z-0.499F840
N28970G01X104.703Y12.722Z-0.499
N28980G01X104.703Y23.408Z-0.499
N28990G01X93.701Y23.408Z-0.499
N29000G01Z-0.999F100
N29010G01X93.701Y12.722Z-0.999F840
N29020G01X104.703Y12.722Z-0.999
N29030G01X104.703Y23.408Z-0.999
N29040G01X93.701Y23.408Z-0.999
N29050G00Z5
N29060(Sketch)
N29070G00Z5S7000M03
N29080G00X93.701Y44.758
N29090G00Z5
N29100G01Z3F100
N29110G01Z2.5
N29120G01X93.701Y34.072Z2.5F840
N29130G01X104.703Y34.072Z2.5
N29140G01X104.703Y44.758Z2.5
N29150G01X93.701Y44.758Z2.5
N29160G01Z2F100
N29170G01X93.701Y34.072Z2F840
N29180G01X104.703Y34.072Z2
N29190G01X104.703Y44.758Z2
N29200G01X93.701Y44.758Z2
N29210G01Z1.5F100
N29220G01X93.701Y34.072Z1.5F840
N29230G01X104.703Y34.072Z1.5
N29240G01X104.703Y44.758Z1.5
N29250G01X93.701Y44.758Z1.5
N29260G01Z1F100
N29270G01X93.701Y34.072Z1F840
N29280G01X104.703Y34.072Z1
N29290G01X104.703Y44.758Z1
N29300G01X93.701Y44.758Z1
N29310G01Z0.5F100
N29320G01X93.701Y34.072Z0.5F840
N29330G01X104.703Y34.072Z0.5
N29340G01X104.703Y44.758Z0.5
N29350G01X93.701Y44.758Z0.5
N29360G01Z0F100
N29370G01X93.701Y34.072Z0F840
N29380G01X104.703Y34.072Z0
N29390G01X104.703Y44.758Z0
N29400G01X93.701Y44.758Z0
N29410G01Z-0.499F100
N29420G01X93.701Y34.072Z-0.499F840
N29430G01X104.703Y34.072Z-0.499
N29440G01X104.703Y44.758Z-0.499
N29450G01X93.701Y44.758Z-0.499
N29460G01Z-0.999F100
N29470G01X93.701Y34.072Z-0.999F840
N29480G01X104.703Y34.072Z-0.999
N29490G01X104.703Y44.758Z-0.999
N29500G01X93.701Y44.758Z-0.999
N29510G00Z5
N29520(Sketch)
N29530G00Z5S7000M03
N29540G00X93.703Y64.072
N29550G00Z5
N29560G01Z3F100
N29570G01Z2.5
N29580G01X93.703Y53.072Z2.5F840
N29590G01X104.703Y53.072Z2.5
N29600G01X104.703Y64.072Z2.5
N29610G01X93.703Y64.072Z2.5
N29620G01Z2F100
N29630G01X93.703Y53.072Z2F840
N29640G01X104.703Y53.072Z2
N29650G01X104.703Y64.072Z2
N29660G01X93.703Y64.072Z2
N29670G01Z1.5F100
N29680G01X93.703Y53.072Z1.5F840
N29690G01X104.703Y53.072Z1.5
N29700G01X104.703Y64.072Z1.5
N29710G01X93.703Y64.072Z1.5
N29720G01Z1F100
N29730G01X93.703Y53.072Z1F840
N29740G01X104.703Y53.072Z1
N29750G01X104.703Y64.072Z1
N29760G01X93.703Y64.072Z1
N29770G01Z0.5F100
N29780G01X93.703Y53.072Z0.5F840
N29790G01X104.703Y53.072Z0.5
N29800G01X104.703Y64.072Z0.5
N29810G01X93.703Y64.072Z0.5
N29820G01Z0F100
N29830G01X93.703Y53.072Z0F840
N29840G01X104.703Y53.072Z0
N29850G01X104.703Y64.072Z0
N29860G01X93.703Y64.072Z0
N29870G01Z-0.499F100
N29880G01X93.703Y53.072Z-0.499F840
N29890G01X104.703Y53.072Z-0.499
N29900G01X104.703Y64.072Z-0.499
N29910G01X93.703Y64.072Z-0.499
N29920G01Z-0.999F100
N29930G01X93.703Y53.072Z-0.999F840
N29940G01X104.703Y53.072Z-0.999
N29950G01X104.703Y64.072Z-0.999
N29960G01X93.703Y64.072Z-0.999
N29970G00Z5
N29980(Sketch)
N29990G00Z5S7000M03
N30000G00X93.703Y83.072
N30010G00Z5
N30020G01Z3F100
N30030G01Z2.5
N30040G01X93.703Y72.072Z2.5F840
N30050G01X104.703Y72.072Z2.5
N30060G01X104.703Y83.072Z2.5
N30070G01X93.703Y83.072Z2.5
N30080G01Z2F100
N30090G01X93.703Y72.072Z2F840
N30100G01X104.703Y72.072Z2
N30110G01X104.703Y83.072Z2
N30120G01X93.703Y83.072Z2
N30130G01Z1.5F100
N30140G01X93.703Y72.072Z1.5F840
N30150G01X104.703Y72.072Z1.5
N30160G01X104.703Y83.072Z1.5
N30170G01X93.703Y83.072Z1.5
N30180G01Z1F100
N30190G01X93.703Y72.072Z1F840
N30200G01X104.703Y72.072Z1
N30210G01X104.703Y83.072Z1
N30220G01X93.703Y83.072Z1
N30230G01Z0.5F100
N30240G01X93.703Y72.072Z0.5F840
N30250G01X104.703Y72.072Z0.5
N30260G01X104.703Y83.072Z0.5
N30270G01X93.703Y83.072Z0.5
N30280G01Z0F100
N30290G01X93.703Y72.072Z0F840
N30300G01X104.703Y72.072Z0
N30310G01X104.703Y83.072Z0
N30320G01X93.703Y83.072Z0
N30330G01Z-0.499F100
N30340G01X93.703Y72.072Z-0.499F840
N30350G01X104.703Y72.072Z-0.499
N30360G01X104.703Y83.072Z-0.499
N30370G01X93.703Y83.072Z-0.499
N30380G01Z-0.999F100
N30390G01X93.703Y72.072Z-0.999F840
N30400G01X104.703Y72.072Z-0.999
N30410G01X104.703Y83.072Z-0.999
N30420G01X93.703Y83.072Z-0.999
N30430G00Z5
N30440(Sketch)
N30450G00Z5S7000M03
N30460G00X93.696Y102.063
N30470G00Z5
N30480G01Z3F100
N30490G01Z2.5
N30500G01X93.696Y91.063Z2.5F840
N30510G01X104.696Y91.063Z2.5
N30520G01X104.696Y102.063Z2.5
N30530G01X93.696Y102.063Z2.5
N30540G01Z2F100
N30550G01X93.696Y91.063Z2F840
N30560G01X104.696Y91.063Z2
N30570G01X104.696Y102.063Z2
N30580G01X93.696Y102.063Z2
N30590G01Z1.5F100
N30600G01X93.696Y91.063Z1.5F840
N30610G01X104.696Y91.063Z1.5
N30620G01X104.696Y102.063Z1.5
N30630G01X93.696Y102.063Z1.5
N30640G01Z1F100
N30650G01X93.696Y91.063Z1F840
N30660G01X104.696Y91.063Z1
N30670G01X104.696Y102.063Z1
N30680G01X93.696Y102.063Z1
N30690G01Z0.5F100
N30700G01X93.696Y91.063Z0.5F840
N30710G01X104.696Y91.063Z0.5
N30720G01X104.696Y102.063Z0.5
N30730G01X93.696Y102.063Z0.5
N30740G01Z0F100
N30750G01X93.696Y91.063Z0F840
N30760G01X104.696Y91.063Z0
N30770G01X104.696Y102.063Z0
N30780G01X93.696Y102.063Z0
N30790G01Z-0.499F100
N30800G01X93.696Y91.063Z-0.499F840
N30810G01X104.696Y91.063Z-0.499
N30820G01X104.696Y102.063Z-0.499
N30830G01X93.696Y102.063Z-0.499
N30840G01Z-0.999F100
N30850G01X93.696Y91.063Z-0.999F840
N30860G01X104.696Y91.063Z-0.999
N30870G01X104.696Y102.063Z-0.999
N30880G01X93.696Y102.063Z-0.999
N30890G00Z5
N30900(Sketch)
N30910G00Z5S7000M03
N30920G00X93.709Y121.072
N30930G00Z5
N30940G01Z3F100
N30950G01Z2.5
N30960G01X93.709Y110.072Z2.5F840
N30970G01X104.709Y110.072Z2.5
N30980G01X104.709Y121.072Z2.5
N30990G01X93.709Y121.072Z2.5
N31000G01Z2F100
N31010G01X93.709Y110.072Z2F840
N31020G01X104.709Y110.072Z2
N31030G01X104.709Y121.072Z2
N31040G01X93.709Y121.072Z2
N31050G01Z1.5F100
N31060G01X93.709Y110.072Z1.5F840
N31070G01X104.709Y110.072Z1.5
N31080G01X104.709Y121.072Z1.5
N31090G01X93.709Y121.072Z1.5
N31100G01Z1F100
N31110G01X93.709Y110.072Z1F840
N31120G01X104.709Y110.072Z1
N31130G01X104.709Y121.072Z1
N31140G01X93.709Y121.072Z1
N31150G01Z0.5F100
N31160G01X93.709Y110.072Z0.5F840
N31170G01X104.709Y110.072Z0.5
N31180G01X104.709Y121.072Z0.5
N31190G01X93.709Y121.072Z0.5
N31200G01Z0F100
N31210G01X93.709Y110.072Z0F840
N31220G01X104.709Y110.072Z0
N31230G01X104.709Y121.072Z0
N31240G01X93.709Y121.072Z0
N31250G01Z-0.499F100
N31260G01X93.709Y110.072Z-0.499F840
N31270G01X104.709Y110.072Z-0.499
N31280G01X104.709Y121.072Z-0.499
N31290G01X93.709Y121.072Z-0.499
N31300G01Z-0.999F100
N31310G01X93.709Y110.072Z-0.999F840
N31320G01X104.709Y110.072Z-0.999
N31330G01X104.709Y121.072Z-0.999
N31340G01X93.709Y121.072Z-0.999
N31350G00Z5
N31360(Sketch)
N31370G00Z5S7000M03
N31380G00X93.703Y140.072
N31390G00Z5
N31400G01Z3F100
N31410G01Z2.5
N31420G01X93.703Y129.072Z2.5F840
N31430G01X104.703Y129.072Z2.5
N31440G01X104.703Y140.072Z2.5
N31450G01X93.703Y140.072Z2.5
N31460G01Z2F100
N31470G01X93.703Y129.072Z2F840
N31480G01X104.703Y129.072Z2
N31490G01X104.703Y140.072Z2
N31500G01X93.703Y140.072Z2
N31510G01Z1.5F100
N31520G01X93.703Y129.072Z1.5F840
N31530G01X104.703Y129.072Z1.5
N31540G01X104.703Y140.072Z1.5
N31550G01X93.703Y140.072Z1.5
N31560G01Z1F100
N31570G01X93.703Y129.072Z1F840
N31580G01X104.703Y129.072Z1
N31590G01X104.703Y140.072Z1
N31600G01X93.703Y140.072Z1
N31610G01Z0.5F100
N31620G01X93.703Y129.072Z0.5F840
N31630G01X104.703Y129.072Z0.5
N31640G01X104.703Y140.072Z0.5
N31650G01X93.703Y140.072Z0.5
N31660G01Z0F100
N31670G01X93.703Y129.072Z0F840
N31680G01X104.703Y129.072Z0
N31690G01X104.703Y140.072Z0
N31700G01X93.703Y140.072Z0
N31710G01Z-0.499F100
N31720G01X93.703Y129.072Z-0.499F840
N31730G01X104.703Y129.072Z-0.499
N31740G01X104.703Y140.072Z-0.499
N31750G01X93.703Y140.072Z-0.499
N31760G01Z-0.999F100
N31770G01X93.703Y129.072Z-0.999F840
N31780G01X104.703Y129.072Z-0.999
N31790G01X104.703Y140.072Z-0.999
N31800G01X93.703Y140.072Z-0.999
N31810G00Z5
N31820(Sketch)
N31830G00Z5S7000M03
N31840G00X93.704Y159.076
N31850G00Z5
N31860G01Z3F100
N31870G01Z2.5
N31880G01X93.704Y148.076Z2.5F840
N31890G01X104.704Y148.076Z2.5
N31900G01X104.704Y159.076Z2.5
N31910G01X93.704Y159.076Z2.5
N31920G01Z2F100
N31930G01X93.704Y148.076Z2F840
N31940G01X104.704Y148.076Z2
N31950G01X104.704Y159.076Z2
N31960G01X93.704Y159.076Z2
N31970G01Z1.5F100
N31980G01X93.704Y148.076Z1.5F840
N31990G01X104.704Y148.076Z1.5
N32000G01X104.704Y159.076Z1.5
N32010G01X93.704Y159.076Z1.5
N32020G01Z1F100
N32030G01X93.704Y148.076Z1F840
N32040G01X104.704Y148.076Z1
N32050G01X104.704Y159.076Z1
N32060G01X93.704Y159.076Z1
N32070G01Z0.5F100
N32080G01X93.704Y148.076Z0.5F840
N32090G01X104.704Y148.076Z0.5
N32100G01X104.704Y159.076Z0.5
N32110G01X93.704Y159.076Z0.5
N32120G01Z0F100
N32130G01X93.704Y148.076Z0F840
N32140G01X104.704Y148.076Z0
N32150G01X104.704Y159.076Z0
N32160G01X93.704Y159.076Z0
N32170G01Z-0.499F100
N32180G01X93.704Y148.076Z-0.499F840
N32190G01X104.704Y148.076Z-0.499
N32200G01X104.704Y159.076Z-0.499
N32210G01X93.704Y159.076Z-0.499
N32220G01Z-0.999F100
N32230G01X93.704Y148.076Z-0.999F840
N32240G01X104.704Y148.076Z-0.999
N32250G01X104.704Y159.076Z-0.999
N32260G01X93.704Y159.076Z-0.999
N32270G00Z5
N32280(Sketch)
N32290G00Z5S7000M03
N32300G00X93.703Y178.072
N32310G00Z5
N32320G01Z3F100
N32330G01Z2.5
N32340G01X93.703Y167.072Z2.5F840
N32350G01X104.703Y167.072Z2.5
N32360G01X104.703Y178.072Z2.5
N32370G01X93.703Y178.072Z2.5
N32380G01Z2F100
N32390G01X93.703Y167.072Z2F840
N32400G01X104.703Y167.072Z2
N32410G01X104.703Y178.072Z2
N32420G01X93.703Y178.072Z2
N32430G01Z1.5F100
N32440G01X93.703Y167.072Z1.5F840
N32450G01X104.703Y167.072Z1.5
N32460G01X104.703Y178.072Z1.5
N32470G01X93.703Y178.072Z1.5
N32480G01Z1F100
N32490G01X93.703Y167.072Z1F840
N32500G01X104.703Y167.072Z1
N32510G01X104.703Y178.072Z1
N32520G01X93.703Y178.072Z1
N32530G01Z0.5F100
N32540G01X93.703Y167.072Z0.5F840
N32550G01X104.703Y167.072Z0.5
N32560G01X104.703Y178.072Z0.5
N32570G01X93.703Y178.072Z0.5
N32580G01Z0F100
N32590G01X93.703Y167.072Z0F840
N32600G01X104.703Y167.072Z0
N32610G01X104.703Y178.072Z0
N32620G01X93.703Y178.072Z0
N32630G01Z-0.499F100
N32640G01X93.703Y167.072Z-0.499F840
N32650G01X104.703Y167.072Z-0.499
N32660G01X104.703Y178.072Z-0.499
N32670G01X93.703Y178.072Z-0.499
N32680G01Z-0.999F100
N32690G01X93.703Y167.072Z-0.999F840
N32700G01X104.703Y167.072Z-0.999
N32710G01X104.703Y178.072Z-0.999
N32720G01X93.703Y178.072Z-0.999
N32730G00Z5
N32740(Sketch)
N32750G00Z5S7000M03
N32760G00X93.703Y197.072
N32770G00Z5
N32780G01Z3F100
N32790G01Z2.5
N32800G01X93.703Y186.072Z2.5F840
N32810G01X104.703Y186.072Z2.5
N32820G01X104.703Y197.072Z2.5
N32830G01X93.703Y197.072Z2.5
N32840G01Z2F100
N32850G01X93.703Y186.072Z2F840
N32860G01X104.703Y186.072Z2
N32870G01X104.703Y197.072Z2
N32880G01X93.703Y197.072Z2
N32890G01Z1.5F100
N32900G01X93.703Y186.072Z1.5F840
N32910G01X104.703Y186.072Z1.5
N32920G01X104.703Y197.072Z1.5
N32930G01X93.703Y197.072Z1.5
N32940G01Z1F100
N32950G01X93.703Y186.072Z1F840
N32960G01X104.703Y186.072Z1
N32970G01X104.703Y197.072Z1
N32980G01X93.703Y197.072Z1
N32990G01Z0.5F100
N33000G01X93.703Y186.072Z0.5F840
N33010G01X104.703Y186.072Z0.5
N33020G01X104.703Y197.072Z0.5
N33030G01X93.703Y197.072Z0.5
N33040G01Z0F100
N33050G01X93.703Y186.072Z0F840
N33060G01X104.703Y186.072Z0
N33070G01X104.703Y197.072Z0
N33080G01X93.703Y197.072Z0
N33090G01Z-0.499F100
N33100G01X93.703Y186.072Z-0.499F840
N33110G01X104.703Y186.072Z-0.499
N33120G01X104.703Y197.072Z-0.499
N33130G01X93.703Y197.072Z-0.499
N33140G01Z-0.999F100
N33150G01X93.703Y186.072Z-0.999F840
N33160G01X104.703Y186.072Z-0.999
N33170G01X104.703Y197.072Z-0.999
N33180G01X93.703Y197.072Z-0.999
N33190G00Z5
N33200(Sketch)
N33210G00Z5S7000M03
N33220G00X93.703Y216.072
N33230G00Z5
N33240G01Z3F100
N33250G01Z2.5
N33260G01X93.703Y205.072Z2.5F840
N33270G01X104.703Y205.072Z2.5
N33280G01X104.703Y216.072Z2.5
N33290G01X93.703Y216.072Z2.5
N33300G01Z2F100
N33310G01X93.703Y205.072Z2F840
N33320G01X104.703Y205.072Z2
N33330G01X104.703Y216.072Z2
N33340G01X93.703Y216.072Z2
N33350G01Z1.5F100
N33360G01X93.703Y205.072Z1.5F840
N33370G01X104.703Y205.072Z1.5
N33380G01X104.703Y216.072Z1.5
N33390G01X93.703Y216.072Z1.5
N33400G01Z1F100
N33410G01X93.703Y205.072Z1F840
N33420G01X104.703Y205.072Z1
N33430G01X104.703Y216.072Z1
N33440G01X93.703Y216.072Z1
N33450G01Z0.5F100
N33460G01X93.703Y205.072Z0.5F840
N33470G01X104.703Y205.072Z0.5
N33480G01X104.703Y216.072Z0.5
N33490G01X93.703Y216.072Z0.5
N33500G01Z0F100
N33510G01X93.703Y205.072Z0F840
N33520G01X104.703Y205.072Z0
N33530G01X104.703Y216.072Z0
N33540G01X93.703Y216.072Z0
N33550G01Z-0.499F100
N33560G01X93.703Y205.072Z-0.499F840
N33570G01X104.703Y205.072Z-0.499
N33580G01X104.703Y216.072Z-0.499
N33590G01X93.703Y216.072Z-0.499
N33600G01Z-0.999F100
N33610G01X93.703Y205.072Z-0.999F840
N33620G01X104.703Y205.072Z-0.999
N33630G01X104.703Y216.072Z-0.999
N33640G01X93.703Y216.072Z-0.999
N33650G00Z5
N33660(Sketch)
N33670G00Z5S7000M03
N33680G00X93.703Y235.072
N33690G00Z5
N33700G01Z3F100
N33710G01Z2.5
N33720G01X93.703Y224.072Z2.5F840
N33730G01X104.703Y224.072Z2.5
N33740G01X104.703Y235.072Z2.5
N33750G01X93.703Y235.072Z2.5
N33760G01Z2F100
N33770G01X93.703Y224.072Z2F840
N33780G01X104.703Y224.072Z2
N33790G01X104.703Y235.072Z2
N33800G01X93.703Y235.072Z2
N33810G01Z1.5F100
N33820G01X93.703Y224.072Z1.5F840
N33830G01X104.703Y224.072Z1.5
N33840G01X104.703Y235.072Z1.5
N33850G01X93.703Y235.072Z1.5
N33860G01Z1F100
N33870G01X93.703Y224.072Z1F840
N33880G01X104.703Y224.072Z1
N33890G01X104.703Y235.072Z1
N33900G01X93.703Y235.072Z1
N33910G01Z0.5F100
N33920G01X93.703Y224.072Z0.5F840
N33930G01X104.703Y224.072Z0.5
N33940G01X104.703Y235.072Z0.5
N33950G01X93.703Y235.072Z0.5
N33960G01Z0F100
N33970G01X93.703Y224.072Z0F840
N33980G01X104.703Y224.072Z0
N33990G01X104.703Y235.072Z0
N34000G01X93.703Y235.072Z0
N34010G01Z-0.499F100
N34020G01X93.703Y224.072Z-0.499F840
N34030G01X104.703Y224.072Z-0.499
N34040G01X104.703Y235.072Z-0.499
N34050G01X93.703Y235.072Z-0.499
N34060G01Z-0.999F100
N34070G01X93.703Y224.072Z-0.999F840
N34080G01X104.703Y224.072Z-0.999
N34090G01X104.703Y235.072Z-0.999
N34100G01X93.703Y235.072Z-0.999
N34110G00Z5
N34120(Sketch)
N34130G00Z5S7000M03
N34140G00X93.703Y270.672
N34150G00Z5
N34160G01Z3F100
N34170G01Z2.5
N34180G01X93.703Y259.672Z2.5F840
N34190G01X104.703Y259.672Z2.5
N34200G01X104.703Y270.672Z2.5
N34210G01X93.703Y270.672Z2.5
N34220G01Z2F100
N34230G01X93.703Y259.672Z2F840
N34240G01X104.703Y259.672Z2
N34250G01X104.703Y270.672Z2
N34260G01X93.703Y270.672Z2
N34270G01Z1.5F100
N34280G01X93.703Y259.672Z1.5F840
N34290G01X104.703Y259.672Z1.5
N34300G01X104.703Y270.672Z1.5
N34310G01X93.703Y270.672Z1.5
N34320G01Z1F100
N34330G01X93.703Y259.672Z1F840
N34340G01X104.703Y259.672Z1
N34350G01X104.703Y270.672Z1
N34360G01X93.703Y270.672Z1
N34370G01Z0.5F100
N34380G01X93.703Y259.672Z0.5F840
N34390G01X104.703Y259.672Z0.5
N34400G01X104.703Y270.672Z0.5
N34410G01X93.703Y270.672Z0.5
N34420G01Z0F100
N34430G01X93.703Y259.672Z0F840
N34440G01X104.703Y259.672Z0
N34450G01X104.703Y270.672Z0
N34460G01X93.703Y270.672Z0
N34470G01Z-0.499F100
N34480G01X93.703Y259.672Z-0.499F840
N34490G01X104.703Y259.672Z-0.499
N34500G01X104.703Y270.672Z-0.499
N34510G01X93.703Y270.672Z-0.499
N34520G01Z-0.999F100
N34530G01X93.703Y259.672Z-0.999F840
N34540G01X104.703Y259.672Z-0.999
N34550G01X104.703Y270.672Z-0.999
N34560G01X93.703Y270.672Z-0.999
N34570G00Z5
N34580(Sketch)
N34590G00Z5S7000M03
N34600G00X74.703Y263.472
N34610G00Z5
N34620G01Z3F100
N34630G01Z2.5
N34640G01X74.703Y252.472Z2.5F840
N34650G01X85.703Y252.472Z2.5
N34660G01X85.703Y263.472Z2.5
N34670G01X74.703Y263.472Z2.5
N34680G01Z2F100
N34690G01X74.703Y252.472Z2F840
N34700G01X85.703Y252.472Z2
N34710G01X85.703Y263.472Z2
N34720G01X74.703Y263.472Z2
N34730G01Z1.5F100
N34740G01X74.703Y252.472Z1.5F840
N34750G01X85.703Y252.472Z1.5
N34760G01X85.703Y263.472Z1.5
N34770G01X74.703Y263.472Z1.5
N34780G01Z1F100
N34790G01X74.703Y252.472Z1F840
N34800G01X85.703Y252.472Z1
N34810G01X85.703Y263.472Z1
N34820G01X74.703Y263.472Z1
N34830G01Z0.5F100
N34840G01X74.703Y252.472Z0.5F840
N34850G01X85.703Y252.472Z0.5
N34860G01X85.703Y263.472Z0.5
N34870G01X74.703Y263.472Z0.5
N34880G01Z0F100
N34890G01X74.703Y252.472Z0F840
N34900G01X85.703Y252.472Z0
N34910G01X85.703Y263.472Z0
N34920G01X74.703Y263.472Z0
N34930G01Z-0.499F100
N34940G01X74.703Y252.472Z-0.499F840
N34950G01X85.703Y252.472Z-0.499
N34960G01X85.703Y263.472Z-0.499
N34970G01X74.703Y263.472Z-0.499
N34980G01Z-0.999F100
N34990G01X74.703Y252.472Z-0.999F840
N35000G01X85.703Y252.472Z-0.999
N35010G01X85.703Y263.472Z-0.999
N35020G01X74.703Y263.472Z-0.999
N35030G00Z5
N35040(Sketch)
N35050G00Z5S7000M03
N35060G00X74.703Y244.472
N35070G00Z5
N35080G01Z3F100
N35090G01Z2.5
N35100G01X74.703Y233.472Z2.5F840
N35110G01X85.703Y233.472Z2.5
N35120G01X85.703Y244.472Z2.5
N35130G01X74.703Y244.472Z2.5
N35140G01Z2F100
N35150G01X74.703Y233.472Z2F840
N35160G01X85.703Y233.472Z2
N35170G01X85.703Y244.472Z2
N35180G01X74.703Y244.472Z2
N35190G01Z1.5F100
N35200G01X74.703Y233.472Z1.5F840
N35210G01X85.703Y233.472Z1.5
N35220G01X85.703Y244.472Z1.5
N35230G01X74.703Y244.472Z1.5
N35240G01Z1F100
N35250G01X74.703Y233.472Z1F840
N35260G01X85.703Y233.472Z1
N35270G01X85.703Y244.472Z1
N35280G01X74.703Y244.472Z1
N35290G01Z0.5F100
N35300G01X74.703Y233.472Z0.5F840
N35310G01X85.703Y233.472Z0.5
N35320G01X85.703Y244.472Z0.5
N35330G01X74.703Y244.472Z0.5
N35340G01Z0F100
N35350G01X74.703Y233.472Z0F840
N35360G01X85.703Y233.472Z0
N35370G01X85.703Y244.472Z0
N35380G01X74.703Y244.472Z0
N35390G01Z-0.499F100
N35400G01X74.703Y233.472Z-0.499F840
N35410G01X85.703Y233.472Z-0.499
N35420G01X85.703Y244.472Z-0.499
N35430G01X74.703Y244.472Z-0.499
N35440G01Z-0.999F100
N35450G01X74.703Y233.472Z-0.999F840
N35460G01X85.703Y233.472Z-0.999
N35470G01X85.703Y244.472Z-0.999
N35480G01X74.703Y244.472Z-0.999
N35490G00Z5
N35500(Sketch)
N35510G00Z5S7000M03
N35520G00X74.703Y225.472
N35530G00Z5
N35540G01Z3F100
N35550G01Z2.5
N35560G01X74.703Y214.472Z2.5F840
N35570G01X85.703Y214.472Z2.5
N35580G01X85.703Y225.472Z2.5
N35590G01X74.703Y225.472Z2.5
N35600G01Z2F100
N35610G01X74.703Y214.472Z2F840
N35620G01X85.703Y214.472Z2
N35630G01X85.703Y225.472Z2
N35640G01X74.703Y225.472Z2
N35650G01Z1.5F100
N35660G01X74.703Y214.472Z1.5F840
N35670G01X85.703Y214.472Z1.5
N35680G01X85.703Y225.472Z1.5
N35690G01X74.703Y225.472Z1.5
N35700G01Z1F100
N35710G01X74.703Y214.472Z1F840
N35720G01X85.703Y214.472Z1
N35730G01X85.703Y225.472Z1
N35740G01X74.703Y225.472Z1
N35750G01Z0.5F100
N35760G01X74.703Y214.472Z0.5F840
N35770G01X85.703Y214.472Z0.5
N35780G01X85.703Y225.472Z0.5
N35790G01X74.703Y225.472Z0.5
N35800G01Z0F100
N35810G01X74.703Y214.472Z0F840
N35820G01X85.703Y214.472Z0
N35830G01X85.703Y225.472Z0
N35840G01X74.703Y225.472Z0
N35850G01Z-0.499F100
N35860G01X74.703Y214.472Z-0.499F840
N35870G01X85.703Y214.472Z-0.499
N35880G01X85.703Y225.472Z-0.499
N35890G01X74.703Y225.472Z-0.499
N35900G01Z-0.999F100
N35910G01X74.703Y214.472Z-0.999F840
N35920G01X85.703Y214.472Z-0.999
N35930G01X85.703Y225.472Z-0.999
N35940G01X74.703Y225.472Z-0.999
N35950G00Z5
N35960(Sketch)
N35970G00Z5S7000M03
N35980G00X74.703Y206.472
N35990G00Z5
N36000G01Z3F100
N36010G01Z2.5
N36020G01X74.703Y195.472Z2.5F840
N36030G01X85.703Y195.472Z2.5
N36040G01X85.703Y206.472Z2.5
N36050G01X74.703Y206.472Z2.5
N36060G01Z2F100
N36070G01X74.703Y195.472Z2F840
N36080G01X85.703Y195.472Z2
N36090G01X85.703Y206.472Z2
N36100G01X74.703Y206.472Z2
N36110G01Z1.5F100
N36120G01X74.703Y195.472Z1.5F840
N36130G01X85.703Y195.472Z1.5
N36140G01X85.703Y206.472Z1.5
N36150G01X74.703Y206.472Z1.5
N36160G01Z1F100
N36170G01X74.703Y195.472Z1F840
N36180G01X85.703Y195.472Z1
N36190G01X85.703Y206.472Z1
N36200G01X74.703Y206.472Z1
N36210G01Z0.5F100
N36220G01X74.703Y195.472Z0.5F840
N36230G01X85.703Y195.472Z0.5
N36240G01X85.703Y206.472Z0.5
N36250G01X74.703Y206.472Z0.5
N36260G01Z0F100
N36270G01X74.703Y195.472Z0F840
N36280G01X85.703Y195.472Z0
N36290G01X85.703Y206.472Z0
N36300G01X74.703Y206.472Z0
N36310G01Z-0.499F100
N36320G01X74.703Y195.472Z-0.499F840
N36330G01X85.703Y195.472Z-0.499
N36340G01X85.703Y206.472Z-0.499
N36350G01X74.703Y206.472Z-0.499
N36360G01Z-0.999F100
N36370G01X74.703Y195.472Z-0.999F840
N36380G01X85.703Y195.472Z-0.999
N36390G01X85.703Y206.472Z-0.999
N36400G01X74.703Y206.472Z-0.999
N36410G00Z5
N36420(Sketch)
N36430G00Z5S7000M03
N36440G00X74.703Y187.472
N36450G00Z5
N36460G01Z3F100
N36470G01Z2.5
N36480G01X74.703Y176.472Z2.5F840
N36490G01X85.703Y176.472Z2.5
N36500G01X85.703Y187.472Z2.5
N36510G01X74.703Y187.472Z2.5
N36520G01Z2F100
N36530G01X74.703Y176.472Z2F840
N36540G01X85.703Y176.472Z2
N36550G01X85.703Y187.472Z2
N36560G01X74.703Y187.472Z2
N36570G01Z1.5F100
N36580G01X74.703Y176.472Z1.5F840
N36590G01X85.703Y176.472Z1.5
N36600G01X85.703Y187.472Z1.5
N36610G01X74.703Y187.472Z1.5
N36620G01Z1F100
N36630G01X74.703Y176.472Z1F840
N36640G01X85.703Y176.472Z1
N36650G01X85.703Y187.472Z1
N36660G01X74.703Y187.472Z1
N36670G01Z0.5F100
N36680G01X74.703Y176.472Z0.5F840
N36690G01X85.703Y176.472Z0.5
N36700G01X85.703Y187.472Z0.5
N36710G01X74.703Y187.472Z0.5
N36720G01Z0F100
N36730G01X74.703Y176.472Z0F840
N36740G01X85.703Y176.472Z0
N36750G01X85.703Y187.472Z0
N36760G01X74.703Y187.472Z0
N36770G01Z-0.499F100
N36780G01X74.703Y176.472Z-0.499F840
N36790G01X85.703Y176.472Z-0.499
N36800G01X85.703Y187.472Z-0.499
N36810G01X74.703Y187.472Z-0.499
N36820G01Z-0.999F100
N36830G01X74.703Y176.472Z-0.999F840
N36840G01X85.703Y176.472Z-0.999
N36850G01X85.703Y187.472Z-0.999
N36860G01X74.703Y187.472Z-0.999
N36870G00Z5
N36880(Sketch)
N36890G00Z5S7000M03
N36900G00X74.703Y168.472
N36910G00Z5
N36920G01Z3F100
N36930G01Z2.5
N36940G01X74.703Y157.472Z2.5F840
N36950G01X85.703Y157.472Z2.5
N36960G01X85.703Y168.472Z2.5
N36970G01X74.703Y168.472Z2.5
N36980G01Z2F100
N36990G01X74.703Y157.472Z2F840
N37000G01X85.703Y157.472Z2
N37010G01X85.703Y168.472Z2
N37020G01X74.703Y168.472Z2
N37030G01Z1.5F100
N37040G01X74.703Y157.472Z1.5F840
N37050G01X85.703Y157.472Z1.5
N37060G01X85.703Y168.472Z1.5
N37070G01X74.703Y168.472Z1.5
N37080G01Z1F100
N37090G01X74.703Y157.472Z1F840
N37100G01X85.703Y157.472Z1
N37110G01X85.703Y168.472Z1
N37120G01X74.703Y168.472Z1
N37130G01Z0.5F100
N37140G01X74.703Y157.472Z0.5F840
N37150G01X85.703Y157.472Z0.5
N37160G01X85.703Y168.472Z0.5
N37170G01X74.703Y168.472Z0.5
N37180G01Z0F100
N37190G01X74.703Y157.472Z0F840
N37200G01X85.703Y157.472Z0
N37210G01X85.703Y168.472Z0
N37220G01X74.703Y168.472Z0
N37230G01Z-0.499F100
N37240G01X74.703Y157.472Z-0.499F840
N37250G01X85.703Y157.472Z-0.499
N37260G01X85.703Y168.472Z-0.499
N37270G01X74.703Y168.472Z-0.499
N37280G01Z-0.999F100
N37290G01X74.703Y157.472Z-0.999F840
N37300G01X85.703Y157.472Z-0.999
N37310G01X85.703Y168.472Z-0.999
N37320G01X74.703Y168.472Z-0.999
N37330G00Z5
N37340(Sketch)
N37350G00Z5S7000M03
N37360G00X74.703Y149.472
N37370G00Z5
N37380G01Z3F100
N37390G01Z2.5
N37400G01X74.703Y138.472Z2.5F840
N37410G01X85.703Y138.472Z2.5
N37420G01X85.703Y149.472Z2.5
N37430G01X74.703Y149.472Z2.5
N37440G01Z2F100
N37450G01X74.703Y138.472Z2F840
N37460G01X85.703Y138.472Z2
N37470G01X85.703Y149.472Z2
N37480G01X74.703Y149.472Z2
N37490G01Z1.5F100
N37500G01X74.703Y138.472Z1.5F840
N37510G01X85.703Y138.472Z1.5
N37520G01X85.703Y149.472Z1.5
N37530G01X74.703Y149.472Z1.5
N37540G01Z1F100
N37550G01X74.703Y138.472Z1F840
N37560G01X85.703Y138.472Z1
N37570G01X85.703Y149.472Z1
N37580G01X74.703Y149.472Z1
N37590G01Z0.5F100
N37600G01X74.703Y138.472Z0.5F840
N37610G01X85.703Y138.472Z0.5
N37620G01X85.703Y149.472Z0.5
N37630G01X74.703Y149.472Z0.5
N37640G01Z0F100
N37650G01X74.703Y138.472Z0F840
N37660G01X85.703Y138.472Z0
N37670G01X85.703Y149.472Z0
N37680G01X74.703Y149.472Z0
N37690G01Z-0.499F100
N37700G01X74.703Y138.472Z-0.499F840
N37710G01X85.703Y138.472Z-0.499
N37720G01X85.703Y149.472Z-0.499
N37730G01X74.703Y149.472Z-0.499
N37740G01Z-0.999F100
N37750G01X74.703Y138.472Z-0.999F840
N37760G01X85.703Y138.472Z-0.999
N37770G01X85.703Y149.472Z-0.999
N37780G01X74.703Y149.472Z-0.999
N37790G00Z5
N37800(Sketch)
N37810G00Z5S7000M03
N37820G00X74.703Y130.472
N37830G00Z5
N37840G01Z3F100
N37850G01Z2.5
N37860G01X74.703Y119.472Z2.5F840
N37870G01X85.703Y119.472Z2.5
N37880G01X85.703Y130.472Z2.5
N37890G01X74.703Y130.472Z2.5
N37900G01Z2F100
N37910G01X74.703Y119.472Z2F840
N37920G01X85.703Y119.472Z2
N37930G01X85.703Y130.472Z2
N37940G01X74.703Y130.472Z2
N37950G01Z1.5F100
N37960G01X74.703Y119.472Z1.5F840
N37970G01X85.703Y119.472Z1.5
N37980G01X85.703Y130.472Z1.5
N37990G01X74.703Y130.472Z1.5
N38000G01Z1F100
N38010G01X74.703Y119.472Z1F840
N38020G01X85.703Y119.472Z1
N38030G01X85.703Y130.472Z1
N38040G01X74.703Y130.472Z1
N38050G01Z0.5F100
N38060G01X74.703Y119.472Z0.5F840
N38070G01X85.703Y119.472Z0.5
N38080G01X85.703Y130.472Z0.5
N38090G01X74.703Y130.472Z0.5
N38100G01Z0F100
N38110G01X74.703Y119.472Z0F840
N38120G01X85.703Y119.472Z0
N38130G01X85.703Y130.472Z0
N38140G01X74.703Y130.472Z0
N38150G01Z-0.499F100
N38160G01X74.703Y119.472Z-0.499F840
N38170G01X85.703Y119.472Z-0.499
N38180G01X85.703Y130.472Z-0.499
N38190G01X74.703Y130.472Z-0.499
N38200G01Z-0.999F100
N38210G01X74.703Y119.472Z-0.999F840
N38220G01X85.703Y119.472Z-0.999
N38230G01X85.703Y130.472Z-0.999
N38240G01X74.703Y130.472Z-0.999
N38250G00Z5
N38260(Sketch)
N38270G00Z5S7000M03
N38280G00X74.703Y111.472
N38290G00Z5
N38300G01Z3F100
N38310G01Z2.5
N38320G01X74.703Y100.472Z2.5F840
N38330G01X85.703Y100.472Z2.5
N38340G01X85.703Y111.472Z2.5
N38350G01X74.703Y111.472Z2.5
N38360G01Z2F100
N38370G01X74.703Y100.472Z2F840
N38380G01X85.703Y100.472Z2
N38390G01X85.703Y111.472Z2
N38400G01X74.703Y111.472Z2
N38410G01Z1.5F100
N38420G01X74.703Y100.472Z1.5F840
N38430G01X85.703Y100.472Z1.5
N38440G01X85.703Y111.472Z1.5
N38450G01X74.703Y111.472Z1.5
N38460G01Z1F100
N38470G01X74.703Y100.472Z1F840
N38480G01X85.703Y100.472Z1
N38490G01X85.703Y111.472Z1
N38500G01X74.703Y111.472Z1
N38510G01Z0.5F100
N38520G01X74.703Y100.472Z0.5F840
N38530G01X85.703Y100.472Z0.5
N38540G01X85.703Y111.472Z0.5
N38550G01X74.703Y111.472Z0.5
N38560G01Z0F100
N38570G01X74.703Y100.472Z0F840
N38580G01X85.703Y100.472Z0
N38590G01X85.703Y111.472Z0
N38600G01X74.703Y111.472Z0
N38610G01Z-0.499F100
N38620G01X74.703Y100.472Z-0.499F840
N38630G01X85.703Y100.472Z-0.499
N38640G01X85.703Y111.472Z-0.499
N38650G01X74.703Y111.472Z-0.499
N38660G01Z-0.999F100
N38670G01X74.703Y100.472Z-0.999F840
N38680G01X85.703Y100.472Z-0.999
N38690G01X85.703Y111.472Z-0.999
N38700G01X74.703Y111.472Z-0.999
N38710G00Z5
N38720(Sketch)
N38730G00Z5S7000M03
N38740G00X74.703Y92.472
N38750G00Z5
N38760G01Z3F100
N38770G01Z2.5
N38780G01X74.703Y81.472Z2.5F840
N38790G01X85.703Y81.472Z2.5
N38800G01X85.703Y92.472Z2.5
N38810G01X74.703Y92.472Z2.5
N38820G01Z2F100
N38830G01X74.703Y81.472Z2F840
N38840G01X85.703Y81.472Z2
N38850G01X85.703Y92.472Z2
N38860G01X74.703Y92.472Z2
N38870G01Z1.5F100
N38880G01X74.703Y81.472Z1.5F840
N38890G01X85.703Y81.472Z1.5
N38900G01X85.703Y92.472Z1.5
