(Created with emc2b post processor 2014/02/22 20:54)
(Feeds and Speeds set for machining Please select a material to machine)
(tool change to 3 mm Carbide Slot Cutter)
T1 M06 G43
G17 G90 G21
(Sketch)
G00 X0.8 Y3 S7000 M03
Z5
G01 Z2.5 F100
G03X6.3 Y-2.5 I5.5 J0 F199.99
G01 X132 Y-2.5
G03X137.5 Y3 I0 J5.5
G01 X137.5 Y355.259
G03X131.759 Y361 I-5.74 J0
G01 X6.3 Y361
G03X0.8 Y355.5 I0 J-5.5
G01 X0.8 Y3
G00 Z5
X0.8 Y3
Z5
G01 Z2 F100
G03X6.3 Y-2.5 I5.5 J0 F199.99
G01 X132 Y-2.5
G03X137.5 Y3 I0 J5.5
G01 X137.5 Y355.259
G03X131.759 Y361 I-5.74 J0
G01 X6.3 Y361
G03X0.8 Y355.5 I0 J-5.5
G01 X0.8 Y3
G00 Z5
X0.8 Y3
Z5
G01 Z1.5 F100
G03X6.3 Y-2.5 I5.5 J0 F199.99
G01 X132 Y-2.5
G03X137.5 Y3 I0 J5.5
G01 X137.5 Y355.259
G03X131.759 Y361 I-5.74 J0
G01 X6.3 Y361
G03X0.8 Y355.5 I0 J-5.5
G01 X0.8 Y3
G00 Z5
X0.8 Y3
Z5
G01 Z1 F100
G03X6.3 Y-2.5 I5.5 J0 F199.99
G01 X132 Y-2.5
G03X137.5 Y3 I0 J5.5
G01 X137.5 Y355.259
G03X131.759 Y361 I-5.74 J0
G01 X6.3 Y361
G03X0.8 Y355.5 I0 J-5.5
G01 X0.8 Y3
G00 Z5
X0.8 Y3
Z5
G01 Z0.5 F100
G03X6.3 Y-2.5 I5.5 J0 F199.99
G01 X132 Y-2.5
G03X137.5 Y3 I0 J5.5
G01 X137.5 Y355.259
G03X131.759 Y361 I-5.74 J0
G01 X6.3 Y361
G03X0.8 Y355.5 I0 J-5.5
G01 X0.8 Y3
G00 Z5
X0.8 Y3
Z5
G01 Z0 F100
G03X6.3 Y-2.5 I5.5 J0 F199.99
G01 X132 Y-2.5
G03X137.5 Y3 I0 J5.5
G01 X137.5 Y355.259
G03X131.759 Y361 I-5.74 J0
G01 X6.3 Y361
G03X0.8 Y355.5 I0 J-5.5
G01 X0.8 Y3
G00 Z5
X0.8 Y3
Z5
G01 Z-0.5 F100
G03X6.3 Y-2.5 I5.5 J0 F199.99
G01 X132 Y-2.5
G03X137.5 Y3 I0 J5.5
G01 X137.5 Y355.259
G03X131.759 Y361 I-5.74 J0
G01 X6.3 Y361
G03X0.8 Y355.5 I0 J-5.5
G01 X0.8 Y3
G00 Z5
X0.8 Y3
Z5
G01 Z-1 F100
G03X6.3 Y-2.5 I5.5 J0 F199.99
G01 X132 Y-2.5
G03X137.5 Y3 I0 J5.5
G01 X137.5 Y355.259
G03X131.759 Y361 I-5.74 J0
G01 X6.3 Y361
G03X0.8 Y355.5 I0 J-5.5
G01 X0.8 Y3
G00 Z5
X0.8 Y3
Z5
G01 Z-1.5 F100
G03X6.3 Y-2.5 I5.5 J0 F199.99
G01 X132 Y-2.5
G03X137.5 Y3 I0 J5.5
G01 X137.5 Y355.259
G03X131.759 Y361 I-5.74 J0
G01 X6.3 Y361
G03X0.8 Y355.5 I0 J-5.5
G01 X0.8 Y3
G00 Z5
G90
(Sketch)
X9.8 Y351 S7000 M03
Z5
G01 Z2.5 F100
X128.5 Y351 F199.99
X128.5 Y7.5
X9.8 Y7.5
X9.8 Y351
G00 Z5
X9.8 Y351
Z5
G01 Z2 F100
X128.5 Y351 F199.99
X128.5 Y7.5
X9.8 Y7.5
X9.8 Y351
G00 Z5
X9.8 Y351
Z5
G01 Z1.5 F100
X128.5 Y351 F199.99
X128.5 Y7.5
X9.8 Y7.5
X9.8 Y351
G00 Z5
X9.8 Y351
Z5
G01 Z1 F100
X128.5 Y351 F199.99
X128.5 Y7.5
X9.8 Y7.5
X9.8 Y351
G00 Z5
X9.8 Y351
Z5
G01 Z0.5 F100
X128.5 Y351 F199.99
X128.5 Y7.5
X9.8 Y7.5
X9.8 Y351
G00 Z5
X9.8 Y351
Z5
G01 Z0 F100
X128.5 Y351 F199.99
X128.5 Y7.5
X9.8 Y7.5
X9.8 Y351
G00 Z5
X9.8 Y351
Z5
G01 Z-0.5 F100
X128.5 Y351 F199.99
X128.5 Y7.5
X9.8 Y7.5
X9.8 Y351
G00 Z5
X9.8 Y351
Z5
G01 Z-1 F100
X128.5 Y351 F199.99
X128.5 Y7.5
X9.8 Y7.5
X9.8 Y351
G00 Z5
X9.8 Y351
Z5
G01 Z-1.5 F100
X128.5 Y351 F199.99
X128.5 Y7.5
X9.8 Y7.5
X9.8 Y351
G00 Z5
T0 M06 M02
